assets/luts/AppleLog2_to_Rec709_33_Grid.cube
TITLE "Generated by Resolve"
LUT_3D_SIZE 33
0.0422065 0.0422065 0.0422065
0.0422217 0.0422065 0.0422065
0.0454871 0.0423133 0.0423133
0.0780346 0.0433051 0.0433051
0.128725 0.0446174 0.0446174
0.170108 0.0454871 0.0454871
0.203845 0.0460365 0.0460365
0.236271 0.0464637 0.0464637
0.273823 0.0467994 0.0467994
0.318105 0.0470588 0.0470588
0.369955 0.0472114 0.0472114
0.430076 0.0472877 0.0472877
0.499519 0.0472267 0.0472267
0.579293 0.047013 0.047013
0.669902 0.0467384 0.0467384
0.758297 0.0466163 0.0466163
0.834333 0.0466316 0.0466316
0.913359 0.0466621 0.0466621
0.979385 0.0465858 0.0465858
1 0.0463111 0.0463111
1 0.0461585 0.0461738
1 0.0461433 0.0461585
1 0.0461433 0.0461585
1 0.0461433 0.0461585
1 0.0461433 0.0461585
1 0.0461433 0.0461585
1 0.0461433 0.0461585
1 0.0461433 0.0461585
1 0.0461433 0.0461585
1 0.0461433 0.0461585
1 0.0461433 0.0461585
1 0.0461433 0.0461585
1 0.0461433 0.0461585
0.0422065 0.0422065 0.0422065
0.0422065 0.0422065 0.0422065
0.0422217 0.0422065 0.0422065
0.0490578 0.0424201 0.0424201
0.0898299 0.0436255 0.0436255
0.135546 0.0447852 0.0447852
0.172564 0.0455329 0.0455329
0.207507 0.0460975 0.0460975
0.247456 0.0465858 0.0465858
0.294087 0.0469368 0.0469368
0.348257 0.0471656 0.0471656
0.410666 0.0472725 0.0472725
0.482155 0.0472572 0.0472572
0.563897 0.0470588 0.0470588
0.656428 0.0467689 0.0467689
0.749355 0.0466163 0.0466163
0.827832 0.0466316 0.0466316
0.908156 0.0466621 0.0466621
0.976303 0.0466011 0.0466011
1 0.0463111 0.0463111
1 0.0461738 0.0461738
1 0.0461433 0.0461585
1 0.0461433 0.0461585
1 0.0461433 0.0461585
1 0.0461433 0.0461585
1 0.0461433 0.0461585
1 0.0461433 0.0461585
1 0.0461433 0.0461585
1 0.0461433 0.0461585
1 0.0461433 0.0461585
1 0.0461433 0.0461585
1 0.0461433 0.0461585
1 0.0461433 0.0461585
0.0422065 0.0422065 0.0422065
0.0422065 0.0422065 0.0422065
0.0422065 0.0422065 0.0422065
0.0433814 0.042237 0.042237
0.0677806 0.0429999 0.0429999
0.113878 0.0442664 0.0442664
0.153384 0.0451667 0.0451667
0.190127 0.0458381 0.0458381
0.231724 0.0464027 0.0464027
0.279911 0.0468452 0.0468452
0.335546 0.0471351 0.0471351
0.399374 0.0472572 0.0472572
0.472129 0.0472725 0.0472725
0.555047 0.0470893 0.0470893
0.648692 0.0467994 0.0467994
0.744259 0.0466163 0.0466163
0.824125 0.0466163 0.0466163
0.90518 0.0466621 0.0466621
0.974548 0.0466011 0.0466011
1 0.0463264 0.0463264
1 0.0461738 0.0461738
1 0.0461433 0.0461585
1 0.0461433 0.0461585
1 0.0461433 0.0461585
1 0.0461433 0.0461585
1 0.0461433 0.0461585
1 0.0461433 0.0461585
1 0.0461433 0.0461585
1 0.0461433 0.0461585
1 0.0461433 0.0461585
1 0.0461433 0.0461585
1 0.0461433 0.0461585
1 0.0461433 0.0461585
0.042298 0.0430762 0.042298
0.042237 0.0424506 0.042237
0.0422217 0.0423133 0.0422217
0.0423438 0.0422522 0.0422217
0.0537881 0.0425879 0.0425727
0.0954147 0.0438087 0.0437781
0.137011 0.044831 0.0448157
0.175509 0.0456092 0.0455787
0.218601 0.0462654 0.0462501
0.268177 0.0467689 0.0467689
0.325078 0.0470893 0.0470893
0.390097 0.0472419 0.0472419
0.463935 0.0472877 0.0472877
0.547829 0.0471046 0.0471046
0.64242 0.0468147 0.0468147
0.740063 0.0466316 0.0466316
0.821118 0.0466163 0.0466163
0.90277 0.0466621 0.0466621
0.973129 0.0466011 0.0466011
1 0.0463264 0.0463264
1 0.0461738 0.0461738
1 0.0461433 0.0461585
1 0.0461433 0.0461585
1 0.0461433 0.0461585
1 0.0461433 0.0461585
1 0.0461433 0.0461585
1 0.0461433 0.0461585
1 0.0461433 0.0461585
1 0.0461433 0.0461585
1 0.0461433 0.0461585
1 0.0461433 0.0461585
1 0.0461433 0.0461585
1 0.0461433 0.0461585
0.0437476 0.0588846 0.0437476
0.0431373 0.0520638 0.0431373
0.0428626 0.0491035 0.0428626
0.04271 0.0471962 0.0426947
0.0465248 0.0458839 0.0426795
0.0789349 0.0456855 0.0435035
0.12163 0.0460059 0.0445411
0.161852 0.0462959 0.0453651
0.206485 0.0465858 0.0460822
0.25745 0.0469215 0.0466621
0.315663 0.047303 0.0470436
0.381888 0.0474403 0.0472419
0.456764 0.047364 0.0472877
0.541543 0.0471351 0.0471199
0.636957 0.0468299 0.0468299
0.736187 0.0466316 0.0466316
0.818509 0.0466163 0.0466163
0.900664 0.0466621 0.0466621
0.971893 0.0466011 0.0466011
1 0.0463264 0.0463264
1 0.0461738 0.0461738
1 0.0461433 0.0461585
1 0.0461433 0.0461585
1 0.0461433 0.0461585
1 0.0461433 0.0461585
1 0.0461433 0.0461585
1 0.0461433 0.0461585
1 0.0461433 0.0461585
1 0.0461433 0.0461585
1 0.0461433 0.0461585
1 0.0461433 0.0461585
1 0.0461433 0.0461585
1 0.0461433 0.0461585
0.0463874 0.0931411 0.0463874
0.0457008 0.0831922 0.0457008
0.0452735 0.0776074 0.0452735
0.0449378 0.0732128 0.0449378
0.0454414 0.069398 0.0446326
0.0660868 0.0662699 0.0448615
0.107637 0.0640116 0.045594
0.149172 0.061738 0.0462196
0.19501 0.0589914 0.0467079
0.247044 0.0557565 0.0470436
0.30631 0.0523384 0.0472114
0.373663 0.0494545 0.0472419
0.449744 0.0479744 0.0472419
0.535683 0.0476844 0.0471351
0.632013 0.0469978 0.0468452
0.732525 0.0466316 0.0466316
0.816175 0.0466163 0.0466163
0.898787 0.0466621 0.0466621
0.970794 0.0466011 0.0466011
1 0.0463264 0.0463264
1 0.0461738 0.0461738
1 0.0461433 0.0461585
1 0.0461433 0.0461585
1 0.0461433 0.0461585
1 0.0461433 0.0461585
1 0.0461433 0.0461585
1 0.0461433 0.0461585
1 0.0461433 0.0461585
1 0.0461433 0.0461585
1 0.0461433 0.0461585
1 0.0461433 0.0461585
1 0.0461433 0.0461585
1 0.0461433 0.0461585
0.0483558 0.125704 0.0483558
0.0478523 0.116426 0.0478523
0.0475319 0.111025 0.0475319
0.0472725 0.10663 0.0472725
0.047303 0.102724 0.047013
0.0576638 0.0990158 0.046952
0.0953078 0.0959793 0.0474556
0.137942 0.0928664 0.0479896
0.18497 0.088838 0.0483711
0.237964 0.0834974 0.0485542
0.297993 0.0765698 0.0484627
0.365988 0.0680705 0.0481117
0.442695 0.0587778 0.0476387
0.529397 0.0509499 0.0471351
0.626947 0.0478523 0.0467994
0.728954 0.0470893 0.0466316
0.814023 0.0466316 0.0466163
0.897047 0.0466621 0.0466621
0.969772 0.0466011 0.0466163
1 0.0463264 0.0463264
1 0.0461738 0.0461738
1 0.0461433 0.0461585
1 0.0461433 0.0461585
1 0.0461433 0.0461585
1 0.0461433 0.0461585
1 0.0461433 0.0461585
1 0.0461433 0.0461585
1 0.0461433 0.0461585
1 0.0461433 0.0461585
1 0.0461433 0.0461585
1 0.0461433 0.0461585
1 0.0461433 0.0461585
1 0.0461433 0.0461585
0.0497902 0.156512 0.0497902
0.0494392 0.14815 0.0494392
0.0492256 0.143313 0.0492256
0.0490425 0.139361 0.0490425
0.0491035 0.135882 0.0488746
0.0525826 0.132464 0.0487221
0.0823987 0.129458 0.0490425
0.125719 0.126467 0.049546
0.174273 0.122637 0.049958
0.228519 0.117464 0.0501411
0.289555 0.110491 0.0500496
0.358434 0.101244 0.0496529
0.435843 0.08925 0.0489967
0.522972 0.0742962 0.0480659
0.62089 0.05832 0.0470436
0.724163 0.048661 0.0465095
0.811246 0.0474403 0.0466163
0.895186 0.0466926 0.0466621
0.968688 0.0466011 0.0466011
1 0.0463264 0.0463264
1 0.0461738 0.0461738
1 0.0461433 0.0461585
1 0.0461433 0.0461585
1 0.0461433 0.0461585
1 0.0461433 0.0461585
1 0.0461433 0.0461585
1 0.0461433 0.0461585
1 0.0461433 0.0461585
1 0.0461433 0.0461585
1 0.0461433 0.0461585
1 0.0461433 0.0461585
1 0.0461433 0.0461585
1 0.0461433 0.0461585
0.0509499 0.191333 0.0509499
0.0507362 0.183825 0.0507362
0.0506142 0.179507 0.0506142
0.0504921 0.175982 0.0504921
0.0504463 0.172915 0.0504005
0.0512398 0.169986 0.0502785
0.0676432 0.167102 0.0503548
0.109438 0.16434 0.0508278
0.160098 0.160906 0.0512856
0.21619 0.156268 0.0515602
0.278737 0.150027 0.0515297
0.348943 0.14168 0.051194
0.427543 0.130648 0.0505989
0.515572 0.11603 0.0497139
0.61416 0.0966506 0.0484779
0.717556 0.0719768 0.0471809
0.8056 0.0511635 0.0464485
0.892241 0.0480049 0.0466468
0.967285 0.0466468 0.0466163
1 0.0463417 0.0463417
1 0.0461738 0.0461738
1 0.0461433 0.0461585
1 0.0461433 0.0461585
1 0.0461433 0.0461585
1 0.0461433 0.0461585
1 0.0461433 0.0461585
1 0.0461433 0.0461585
1 0.0461433 0.0461585
1 0.0461433 0.0461585
1 0.0461433 0.0461585
1 0.0461433 0.0461585
1 0.0461433 0.0461585
1 0.0461433 0.0461585
0.0517433 0.231617 0.0517433
0.0516518 0.224887 0.0516518
0.0515908 0.221027 0.0515908
0.0515297 0.217914 0.0515297
0.0514839 0.215198 0.0514839
0.0520943 0.212711 0.0514382
0.0557412 0.210101 0.0513466
0.0877241 0.207446 0.051667
0.140551 0.204364 0.0521859
0.199435 0.20029 0.0525826
0.264195 0.194781 0.0526741
0.336278 0.187396 0.0524453
0.416587 0.177691 0.0519417
0.506035 0.164935 0.051194
0.605905 0.147982 0.0501411
0.710002 0.123812 0.0489052
0.798276 0.0881819 0.0475319
0.88632 0.0560159 0.0464942
0.964721 0.0486458 0.0465705
1 0.0464027 0.0463417
1 0.0461738 0.0461738
1 0.0461433 0.0461585
1 0.0461433 0.0461585
1 0.0461433 0.0461585
1 0.0461433 0.0461585
1 0.0461433 0.0461585
1 0.0461433 0.0461585
1 0.0461433 0.0461585
1 0.0461433 0.0461585
1 0.0461433 0.0461585
1 0.0461433 0.0461585
1 0.0461433 0.0461585
1 0.0461433 0.0461585
0.0520333 0.278126 0.0520333
0.0520333 0.272114 0.0520333
0.0520333 0.268681 0.0520333
0.052018 0.265904 0.052018
0.052018 0.263493 0.052018
0.0520638 0.261326 0.0520027
0.0536202 0.25922 0.0519875
0.0640879 0.256641 0.0519875
0.113283 0.253788 0.0524758
0.176364 0.250202 0.0530098
0.244434 0.245365 0.0532692
0.319158 0.238849 0.0531472
0.401816 0.230259 0.0527352
0.493263 0.21912 0.0521401
0.594934 0.204486 0.0512551
0.700221 0.183062 0.0502632
0.789746 0.148745 0.0492409
0.879423 0.107317 0.0479744
0.958984 0.0638895 0.0465705
1 0.0489967 0.0462654
1 0.0462806 0.0461738
1 0.0461433 0.0461585
1 0.0461433 0.0461585
1 0.0461433 0.0461585
1 0.0461433 0.0461585
1 0.0461433 0.0461585
1 0.0461433 0.0461585
1 0.0461433 0.0461585
1 0.0461433 0.0461585
1 0.0461433 0.0461585
1 0.0461433 0.0461585
1 0.0461433 0.0461585
1 0.0461433 0.0461585
0.0516976 0.331746 0.0516976
0.0517586 0.326375 0.0517586
0.0517891 0.323323 0.0517891
0.0518044 0.320851 0.0518044
0.0518349 0.318715 0.0518349
0.0518502 0.316793 0.0518502
0.0520943 0.315007 0.0518654
0.054612 0.312947 0.0518502
0.0780194 0.310079 0.0519722
0.143923 0.306889 0.0526131
0.217304 0.302693 0.0530556
0.295933 0.296956 0.0530861
0.381826 0.289357 0.0527657
0.47602 0.279515 0.0522469
0.580072 0.266712 0.0514534
0.686763 0.246952 0.0506447
0.778347 0.213901 0.0500954
0.871 0.175677 0.049424
0.952636 0.128557 0.0482948
1 0.0729992 0.046479
1 0.0492103 0.0460365
1 0.0463111 0.0461585
1 0.0461433 0.0461585
1 0.0461433 0.0461585
1 0.0461433 0.0461585
1 0.0461433 0.0461585
1 0.0461433 0.0461585
1 0.0461433 0.0461585
1 0.0461433 0.0461585
1 0.0461433 0.0461585
1 0.0461433 0.0461585
1 0.0461433 0.0461585
1 0.0461433 0.0461585
0.050721 0.393347 0.050721
0.0508125 0.388571 0.0508125
0.0508583 0.385855 0.0508583
0.0509041 0.383658 0.0509041
0.0509346 0.381765 0.0509346
0.0509651 0.380072 0.0509651
0.0509957 0.378515 0.0509957
0.0515602 0.376837 0.0510262
0.0554055 0.374411 0.0509804
0.0982223 0.371267 0.0512856
0.179416 0.367651 0.0519112
0.264225 0.362661 0.0521096
0.354757 0.355901 0.0518044
0.452766 0.347143 0.0512245
0.559899 0.335821 0.05037
0.668208 0.31664 0.0496071
0.762707 0.283726 0.0495003
0.85919 0.247349 0.049424
0.944335 0.203815 0.0491798
1 0.148058 0.0482338
1 0.0831159 0.0464942
1 0.0493629 0.0459297
1 0.0463569 0.0461585
1 0.0461433 0.0461585
1 0.0461433 0.0461585
1 0.0461433 0.0461585
1 0.0461433 0.0461585
1 0.0461433 0.0461585
1 0.0461433 0.0461585
1 0.0461433 0.0461585
1 0.0461433 0.0461585
1 0.0461433 0.0461585
1 0.0461433 0.0461585
0.0489967 0.463706 0.0489967
0.0491188 0.459495 0.0491188
0.0491951 0.457099 0.0491951
0.0492561 0.455161 0.0492409
0.0493019 0.453498 0.0493019
0.0493477 0.452003 0.0493477
0.0493782 0.450629 0.0493782
0.049424 0.44918 0.049424
0.05066 0.447318 0.0494698
0.0577859 0.444465 0.0493629
0.124331 0.441016 0.0497749
0.220279 0.436728 0.0501259
0.318013 0.430747 0.0497902
0.421561 0.422827 0.0489509
0.532891 0.412711 0.0478065
0.643366 0.393133 0.0469062
0.741558 0.359518 0.0470283
0.842664 0.323934 0.0473487
0.932265 0.281758 0.0479591
0.999237 0.229129 0.0484779
1 0.166415 0.0480659
1 0.0923171 0.0466621
1 0.0497444 0.0458839
1 0.0464179 0.0461585
1 0.0461433 0.0461585
1 0.0461433 0.0461585
1 0.0461433 0.0461585
1 0.0461433 0.0461585
1 0.0461433 0.0461585
1 0.0461433 0.0461585
1 0.0461433 0.0461585
1 0.0461433 0.0461585
1 0.0461433 0.0461585
0.0457313 0.543694 0.0457313
0.0459144 0.539986 0.0459144
0.0460212 0.537881 0.0460212
0.0460975 0.536187 0.0460975
0.0461738 0.534722 0.0461738
0.0462348 0.53341 0.0462348
0.0462959 0.532204 0.0462959
0.0463569 0.530938 0.0463569
0.0464332 0.529335 0.0464332
0.049073 0.52723 0.0465248
0.0630503 0.523903 0.0463417
0.155642 0.519997 0.0466011
0.266957 0.514717 0.0462654
0.379126 0.507469 0.0450599
0.496803 0.498238 0.0434119
0.610727 0.477211 0.042359
0.71371 0.442176 0.0425422
0.820279 0.406806 0.0428779
0.915068 0.364584 0.0440223
0.986816 0.312505 0.0458381
1 0.252354 0.0472877
1 0.181369 0.0479896
1 0.100114 0.0468605
1 0.050309 0.0458534
1 0.046479 0.0461585
1 0.0461433 0.0461585
1 0.0461433 0.0461585
1 0.0461433 0.0461585
1 0.0461433 0.0461585
1 0.0461433 0.0461585
1 0.0461433 0.0461585
1 0.0461433 0.0461585
1 0.0461433 0.0461585
0.0410925 0.618326 0.0410925
0.0412757 0.615839 0.0412757
0.0413672 0.614435 0.0413672
0.0414588 0.613291 0.0414435
0.0415198 0.612314 0.0415198
0.0415808 0.611444 0.0415808
0.0416419 0.610636 0.0416419
0.0417029 0.609781 0.0417029
0.0417792 0.608713 0.0417792
0.0418708 0.60734 0.0418708
0.0470283 0.605493 0.0419776
0.0716259 0.601892 0.0415961
0.1879 0.596872 0.0412909
0.313313 0.589822 0.0399634
0.438407 0.580606 0.0377966
0.562631 0.564111 0.0358129
0.677485 0.53286 0.0354467
0.791074 0.497246 0.0357366
0.892119 0.453895 0.0372625
0.96968 0.400854 0.0400397
1 0.34049 0.043122
1 0.271107 0.0463722
1 0.193606 0.0479744
1 0.107271 0.0470283
1 0.0509346 0.0458381
1 0.04654 0.0461585
1 0.0461433 0.0461585
1 0.0461433 0.0461585
1 0.0461433 0.0461585
1 0.0461433 0.0461585
1 0.0461433 0.0461585
1 0.0461433 0.0461585
1 0.0461433 0.0461585
0.0355688 0.685222 0.0355688
0.0357366 0.683345 0.0357366
0.0358434 0.682292 0.0358434
0.0359197 0.681437 0.0359197
0.0359808 0.680705 0.0359808
0.0360418 0.680049 0.0360418
0.0361028 0.679454 0.0361028
0.0361639 0.678813 0.0361639
0.0362402 0.678019 0.0362402
0.0363317 0.676982 0.0363317
0.0364538 0.675654 0.0364538
0.0450752 0.673732 0.0365606
0.0812695 0.669581 0.0358434
0.216648 0.663691 0.0345617
0.354208 0.655406 0.031754
0.490272 0.644877 0.0278172
0.625406 0.627039 0.023743
0.752117 0.595987 0.0221866
0.861036 0.550515 0.024918
0.947112 0.49575 0.0299687
1 0.433661 0.0352789
1 0.362997 0.0408942
1 0.286503 0.0456855
1 0.20444 0.0479133
1 0.113069 0.0471504
1 0.0515145 0.0458228
1 0.0465858 0.0461585
1 0.0461433 0.0461585
1 0.0461433 0.0461585
1 0.0461433 0.0461585
1 0.0461433 0.0461585
1 0.0461433 0.0461585
1 0.0461433 0.0461585
0.0264439 0.760189 0.0264286
0.026688 0.758694 0.0266728
0.0268254 0.757855 0.0268101
0.0269322 0.757168 0.0269169
0.0270237 0.756588 0.0270085
0.0271 0.756069 0.0271
0.0271763 0.755581 0.0271763
0.0272526 0.755077 0.0272526
0.0273594 0.754437 0.0273594
0.0274815 0.753613 0.0274815
0.0276493 0.75256 0.0276341
0.0278477 0.751186 0.0278477
0.0428626 0.749249 0.0279393
0.0936446 0.744839 0.0261082
0.249287 0.738048 0.0213474
0.400458 0.728405 0.00480659
0.548959 0.716518 0
0.695415 0.697124 0
0.818647 0.654536 0
0.916564 0.598001 0
0.989593 0.533272 0.0179599
1 0.459861 0.0306706
1 0.381628 0.0392004
1 0.300069 0.0449989
1 0.212924 0.0478218
1 0.117632 0.0472572
1 0.0520943 0.0458228
1 0.0466316 0.0461585
1 0.0461433 0.0461585
1 0.0461433 0.0461585
1 0.0461433 0.0461585
1 0.0461433 0.0461585
1 0.0461433 0.0461585
0 0.827878 0
0 0.826932 0
0 0.826383 0
0 0.825956 0
0 0.825574 0
0 0.825238 0
0 0.824933 0
0 0.824613 0
0 0.824201 0
0 0.823682 0
0 0.822995 0
0 0.822126 0
1.5259e-05 0.820996 1.5259e-05
0.0410468 0.819501 3.0518e-05
0.107866 0.814511 0
0.281331 0.806363 0
0.444617 0.795224 0
0.603891 0.781598 0
0.75491 0.756939 0
0.875349 0.707759 0
0.959106 0.639673 0
1 0.562814 0
1 0.481666 0.0263371
1 0.397971 0.0376593
1 0.310597 0.044419
1 0.219577 0.0477302
1 0.121614 0.0473335
1 0.0525673 0.0458076
1 0.0466621 0.0461585
1 0.0461433 0.0461585
1 0.0461433 0.0461585
1 0.0461433 0.0461585
1 0.0461433 0.0461585
0 0.886122 0
0 0.885496 0
0 0.885145 0
0 0.884855 0
0 0.884611 0
0 0.884382 0
0 0.884184 0
0 0.88397 0
0 0.883696 0
0 0.88336 0
0 0.882902 0
0 0.882307 0
0 0.881483 0
0 0.880385 0
0.039292 0.878965 0
0.121447 0.87393 0
0.310643 0.865141 0
0.484855 0.853269 0
0.653788 0.838758 0
0.809033 0.81181 0
0.918456 0.75259 0
0.989105 0.672541 0
1 0.587747 0
1 0.500755 0.0218204
1 0.410513 0.0363622
1 0.318853 0.0439155
1 0.225315 0.0476387
1 0.124605 0.0473793
1 0.0530098 0.0458076
1 0.0466926 0.0461585
1 0.0461433 0.0461585
1 0.0461433 0.0461585
1 0.0461433 0.0461585
0 0.930388 0
0 0.930007 0
0 0.929793 0
0 0.929625 0
0 0.929473 0
0 0.929351 0
0 0.929213 0
0 0.929091 0
0 0.928939 0
0 0.928725 0
0 0.92845 0
0 0.9281 0
0 0.927657 0
0 0.927077 0
0 0.926329 0
0.0381781 0.925185 0
0.134386 0.920073 0
0.3364 0.910582 0
0.519631 0.898253 0
0.695949 0.883558 0
0.850706 0.854459 0
0.948959 0.787121 0
1 0.700099 0
1 0.609354 0
1 0.515145 0.0166476
1 0.420371 0.0352789
1 0.325994 0.043473
1 0.229587 0.0475624
1 0.127352 0.0474403
1 0.0534981 0.0458228
1 0.0467384 0.0461585
1 0.0461433 0.0461585
1 0.0461433 0.0461585
0 0.961318 0
0 0.96112 0
0 0.961013 0
0 0.960922 0
0 0.960845 0
0 0.960769 0
0 0.960708 0
0 0.960647 0
0 0.960555 0
0 0.960449 0
0 0.960311 0
0 0.960143 0
0 0.959899 0
0 0.959594 0
0 0.959182 0
0 0.958648 0
0.0375677 0.957626 0
0.145373 0.952407 0
0.357244 0.942428 0
0.547417 0.929839 0
0.728573 0.915084 0
0.880659 0.884886 0
0.972961 0.815641 0
1 0.723537 0
1 0.625391 0
1 0.526497 0.00505074
1 0.428916 0.034287
1 0.331304 0.043122
1 0.233631 0.0474861
1 0.130343 0.0474861
1 0.0551156 0.0458228
1 0.0470283 0.0461585
1 0.0461433 0.0461585
0 0.986145 0
0 0.986007 0
0 0.985931 0
0 0.98587 0
0 0.985824 0
0 0.985779 0
0 0.985733 0
0 0.985687 0
0 0.985626 0
0 0.98555 0
0 0.985458 0
0 0.985336 0
0 0.985183 0
0 0.984985 0
0 0.98471 0
0 0.984375 0
0 0.983948 0
0.0369879 0.982971 0
0.154604 0.97763 0
0.374823 0.967163 0
0.571038 0.954269 0
0.755856 0.939635 0
0.905547 0.909926 0
0.990799 0.838651 0
1 0.74078 0
1 0.638346 0
1 0.53637 0.000656138
1 0.435233 0.0335088
1 0.336431 0.042771
1 0.238117 0.0473793
1 0.144167 0.047715
1 0.0620584 0.0459449
1 0.0489509 0.0460822
0 1 0
0 1 0
0 1 0
0 1 0
0 1 0
0 1 0
0 1 0
0 1 0
0 1 0
0 1 0
0 1 0
0 1 0
0 1 0
0 1 0
0 1 0
0 1 0
0 1 0
0 1 0
0.0365759 1 0
0.162829 0.997818 0
0.389899 0.986877 0
0.591028 0.973648 0
0.778058 0.958892 0
0.924468 0.928771 0
1 0.855085 0
1 0.75491 0
1 0.649409 0
1 0.543648 0
1 0.441444 0.0327153
1 0.342199 0.042359
1 0.260182 0.0467536
1 0.176608 0.0479896
1 0.122347 0.0473487
0 1 0
0 1 0
0 1 0
0 1 0
0 1 0
0 1 0
0 1 0
0 1 0
0 1 0
0 1 0
0 1 0
0 1 0
0 1 0
0 1 0
0 1 0
0 1 0
0 1 0
0 1 0
0 1 0
0.035935 1 0
0.1691 1 0
0.40119 1 0
0.605951 0.987411 0
0.794293 0.972671 0
0.938003 0.942107 0
1 0.868437 0
1 0.766567 0
1 0.657588 0
1 0.550973 0
1 0.448478 0.031754
1 0.369039 0.0402838
1 0.308156 0.0445563
1 0.272129 0.0463111
0 1 0
0 1 0
0 1 0
0 1 0
0 1 0
0 1 0
0 1 0
0 1 0
0 1 0
0 1 0
0 1 0
0 1 0
0 1 0
0 1 0
0 1 0
0 1 0
0 1 0
0 1 0
0 1 0
0 1 0
0.0355535 1 0
0.173785 1 0
0.410132 1 0
0.618326 0.99852 0
0.80763 0.983902 0
0.949325 0.953674 0
1 0.879057 0
1 0.775341 0
1 0.665995 0
1 0.559304 0
1 0.477882 0.0270085
1 0.428321 0.0343481
1 0.401617 0.0372931
0 1 0
0 1 0
0 1 0
0 1 0
0 1 0
0 1 0
0 1 0
0 1 0
0 1 0
0 1 0
0 1 0
0 1 0
0 1 0
0 1 0
0 1 0
0 1 0
0 1 0
0 1 0
0 1 0
0 1 0
0 1 0
0.0357977 1 0
0.178302 1 0
0.417853 1 0
0.628016 1 0
0.817929 0.992599 0
0.956741 0.961929 0
1 0.887205 0
1 0.784451 0
1 0.675578 0
1 0.588663 0
1 0.545327 0
1 0.524956 0.00607309
0 1 0
0 1 0
0 1 0
0 1 0
0 1 0
0 1 0
0 1 0
0 1 0
0 1 0
