assets/luts/AppleLog2_to_Rec709_33_Grid.cube
TITLE "Generated by Resolve"
LUT_3D_SIZE 9
0.0422065 0.0422065 0.0422065
0.128725 0.0446174 0.0446174
0.273823 0.0467994 0.0467994
0.499519 0.0472267 0.0472267
0.834333 0.0466316 0.0466316
1 0.0461585 0.0461738
1 0.0461433 0.0461585
1 0.0461433 0.0461585
1 0.0461433 0.0461585
0.0437476 0.0588846 0.0437476
0.0465248 0.0458839 0.0426795
0.206485 0.0465858 0.0460822
0.456764 0.047364 0.0472877
0.818509 0.0466163 0.0466163
1 0.0461738 0.0461738
1 0.0461433 0.0461585
1 0.0461433 0.0461585
1 0.0461433 0.0461585
0.0509499 0.191333 0.0509499
0.0504463 0.172915 0.0504005
0.160098 0.160906 0.0512856
0.427543 0.130648 0.0505989
0.8056 0.0511635 0.0464485
1 0.0461738 0.0461738
1 0.0461433 0.0461585
1 0.0461433 0.0461585
1 0.0461433 0.0461585
0.050721 0.393347 0.050721
0.0509346 0.381765 0.0509346
0.0554055 0.374411 0.0509804
0.354757 0.355901 0.0518044
0.762707 0.283726 0.0495003
1 0.0831159 0.0464942
1 0.0461433 0.0461585
1 0.0461433 0.0461585
1 0.0461433 0.0461585
0.0355688 0.685222 0.0355688
0.0359808 0.680705 0.0359808
0.0362402 0.678019 0.0362402
0.0812695 0.669581 0.0358434
0.625406 0.627039 0.023743
1 0.433661 0.0352789
1 0.113069 0.0471504
1 0.0461433 0.0461585
1 0.0461433 0.0461585
0 0.930388 0
0 0.929473 0
0 0.928939 0
0 0.927657 0
0.134386 0.920073 0
0.850706 0.854459 0
1 0.515145 0.0166476
1 0.127352 0.0474403
1 0.0461433 0.0461585
0 1 0
0 1 0
0 1 0
0 1 0
0 1 0
0.1691 1 0
0.938003 0.942107 0
1 0.550973 0
1 0.272129 0.0463111
0 1 0
0 1 0
0 1 0
0 1 0
0 1 0
0 1 0
0.185657 1 0
0.96907 0.976684 0
1 0.763241 0
0 1 0
0 1 0
0 1 0
0 1 0
0 1 0
0 1 0
0 1 0
0.399191 1 0
1 1 0
0.0422827 0.0422827 0.0490883
0.0939345 0.0437629 0.0469062
0.250523 0.0466011 0.0481117
0.484276 0.0472572 0.0478218
0.828641 0.0466316 0.0467384
1 0.0461738 0.0461738
1 0.0461433 0.0461585
1 0.0461433 0.0461585
1 0.0461433 0.0461585
0.0423133 0.0432288 0.042359
0.0422675 0.0422217 0.0422217
0.179614 0.045655 0.0456703
0.440528 0.0472877 0.0472877
0.81265 0.0466163 0.0466163
1 0.0461738 0.0461738
1 0.0461433 0.0461585
1 0.0461433 0.0461585
1 0.0461433 0.0461585
0.0500496 0.163043 0.0500496
0.0492103 0.142855 0.0492103
0.128985 0.129793 0.0497444
0.410727 0.0970626 0.0493629
0.802029 0.0478981 0.0466011
1 0.0461738 0.0461738
1 0.0461433 0.0461585
1 0.0461433 0.0461585
1 0.0461433 0.0461585
0.0510567 0.375692 0.0510567
0.0512551 0.363714 0.0512551
0.0534218 0.356405 0.0513619
0.33611 0.337209 0.0523384
0.758053 0.265797 0.0498817
1 0.0665751 0.0460975
1 0.0461433 0.0461585
1 0.0461433 0.0461585
1 0.0461433 0.0461585
0.0362097 0.67837 0.0362097
0.0366217 0.673808 0.0366217
0.0368658 0.671092 0.0368658
0.065095 0.663005 0.0366827
0.618097 0.619699 0.0256504
1 0.426001 0.0361334
1 0.104189 0.046952
1 0.0461433 0.0461585
1 0.0461433 0.0461585
0 0.929 0
0 0.928084 0
0 0.927535 0
0 0.926238 0
0.120897 0.91902 0
0.849073 0.852811 0
1 0.512306 0.0179294
1 0.123827 0.047364
1 0.0461433 0.0461585
0 1 0
0 1 0
0 1 0
0 1 0
0 1 0
0.162875 1 0
0.937758 0.941878 0
1 0.549935 0
1 0.270405 0.0463874
0 1 0
0 1 0
0 1 0
0 1 0
0 1 0
0 1 0
0.183261 1 0
0.969009 0.976623 0
1 0.762707 0
0 1 0
0 1 0
0 1 0
0 1 0
0 1 0
0 1 0
0 1 0
0.398169 1 0
1 1 0
0.043473 0.043473 0.172274
0.0742504 0.0442512 0.165393
0.235981 0.0471809 0.162112
0.474678 0.047715 0.15079
0.824308 0.0467689 0.110079
1 0.0461585 0.0489509
1 0.0461433 0.0461585
1 0.0461433 0.0461585
1 0.0461433 0.0461585
0.0432136 0.0432288 0.141619
0.0431525 0.0431525 0.134279
0.162142 0.0459754 0.130495
0.430274 0.0476234 0.118868
0.808423 0.0466773 0.07953
1 0.0461738 0.0469368
1 0.0461433 0.0461585
1 0.0461433 0.0461585
1 0.0461433 0.0461585
0.0496071 0.144549 0.122545
0.0485542 0.12311 0.114595
0.108476 0.10927 0.109392
0.400153 0.0763714 0.0969406
0.798535 0.047013 0.062501
1 0.0461738 0.0463111
1 0.0461433 0.0461585
1 0.0461433 0.0461585
1 0.0461433 0.0461585
0.0511788 0.364584 0.0723125
0.0513771 0.352392 0.066331
0.0521401 0.344991 0.0633097
0.324453 0.325536 0.0594949
0.755199 0.254536 0.0541238
1 0.0590066 0.0459297
1 0.0461433 0.0461585
1 0.0461433 0.0461585
1 0.0461433 0.0461585
0.0365759 0.67425 0.0365759
0.0369879 0.669673 0.0369879
0.037232 0.666941 0.0372168
0.0580758 0.659098 0.0371862
0.613718 0.615305 0.026688
1 0.421347 0.0366369
1 0.0990311 0.0468299
1 0.0461433 0.0461585
1 0.0461433 0.0461585
0 0.928176 0
0 0.927245 0
0 0.926696 0
0 0.925399 0
0.113787 0.918364 0
0.848096 0.851835 0
1 0.510613 0.018616
1 0.121736 0.0473335
1 0.0461433 0.0461585
0 1 0
0 1 0
0 1 0
0 1 0
0 1 0
0.159167 1 0
0.937606 0.941741 0
1 0.54931 0
1 0.269368 0.0464179
0 1 0
0 1 0
0 1 0
0 1 0
0 1 0
0 1 0
0.181827 1 0
0.968963 0.976593 0
1 0.762387 0
0 1 0
0 1 0
0 1 0
0 1 0
0 1 0
0 1 0
0 1 0
0.397559 1 0
1 1 0
0.0444343 0.0444343 0.376349
0.0476844 0.0444953 0.371756
0.199908 0.0473182 0.369482
0.451972 0.0480049 0.361578
0.81416 0.0469673 0.320516
1 0.0464027 0.198825
1 0.0461128 0.0504921
1 0.0461433 0.0461585
1 0.0461433 0.0461585
0.0443732 0.0443732 0.357153
0.0443732 0.0443732 0.352667
0.117494 0.0459907 0.349889
0.405951 0.0480659 0.342397
0.797909 0.0469825 0.305196
1 0.0464027 0.183978
1 0.046128 0.0491035
1 0.0461433 0.0461585
1 0.0461433 0.0461585
0.047776 0.0971847 0.344244
0.0463722 0.0740215 0.339559
0.0625772 0.0617838 0.33637
0.375738 0.0495003 0.329793
0.788052 0.047013 0.295735
1 0.0463874 0.174609
1 0.046128 0.0489815
1 0.0461433 0.0461585
1 0.0461433 0.0461585
0.0517891 0.33785 0.311879
0.0519722 0.325002 0.307485
0.0520638 0.317205 0.30486
0.295888 0.296941 0.297093
0.746365 0.225299 0.262165
1 0.0504005 0.14963
1 0.0461433 0.0478676
1 0.0461433 0.0461585
1 0.0461433 0.0461585
0.0364843 0.662791 0.194308
0.0369421 0.658167 0.189944
0.0372168 0.655421 0.187304
0.0535744 0.648188 0.180575
0.601999 0.603555 0.148714
1 0.409644 0.0657359
1 0.0874495 0.0465705
1 0.0461433 0.0461585
1 0.0461433 0.0461585
0 0.926223 0
0 0.925292 0
0 0.924727 0
0 0.92343 0
0.0995041 0.916793 0
0.845792 0.849531 0
1 0.5066 0.0200351
1 0.116823 0.0472267
1 0.0461433 0.0461585
0 1 0
0 1 0
0 1 0
0 1 0
0 1 0
0.150332 1 0
0.937255 0.941405 0
1 0.54786 0
1 0.266957 0.0465095
0 1 0
0 1 0
0 1 0
0 1 0
0 1 0
0 1 0
0.178454 1 0
0.968872 0.976501 0
1 0.761654 0
0 1 0
0 1 0
0 1 0
0 1 0
0 1 0
0 1 0
0 1 0
0.396155 1 0
1 1 0
0.0450294 0.0450294 0.72221
0.0450141 0.0450141 0.719676
0.0802777 0.045655 0.717739
0.385306 0.0477302 0.712886
0.784939 0.0461738 0.668986
1 0.0458228 0.494011
1 0.0463722 0.250828
1 0.0460975 0.0531319
1 0.0461433 0.0461585
0.0449989 0.0449989 0.711055
0.0449989 0.0449989 0.708492
0.0451972 0.0449989 0.706905
0.333181 0.0478065 0.70222
0.766995 0.0462196 0.665019
1 0.0458534 0.488319
1 0.0463874 0.244984
1 0.0460975 0.0515908
1 0.0461433 0.0461585
0.0449989 0.0450141 0.704341
0.0449836 0.0449836 0.701762
0.0449836 0.0449836 0.700221
0.299306 0.0478065 0.69575
0.75555 0.0462501 0.662348
1 0.0458686 0.484779
1 0.0463874 0.241459
1 0.0460975 0.0508736
1 0.0461433 0.0461585
0.0514839 0.255909 0.684977
0.0514534 0.240574 0.682887
0.0513924 0.231113 0.681498
0.205585 0.207095 0.67715
0.71783 0.124544 0.646845
1 0.0461585 0.47567
1 0.0463874 0.233021
1 0.0461128 0.0496986
1 0.0461433 0.0461585
0.0360876 0.625772 0.592554
0.0366217 0.620462 0.591989
0.0369116 0.617304 0.591684
0.0394141 0.609812 0.590967
0.564248 0.565744 0.566339
1 0.372778 0.422751
1 0.061387 0.204959
1 0.046128 0.0488441
1 0.0461433 0.0461585
0 0.916701 0.320958
0 0.91577 0.319249
0 0.915206 0.318227
0 0.913893 0.315831
0.0585489 0.90837 0.307744
0.835523 0.839185 0.250736
1 0.494285 0.0948348
1 0.103609 0.0470741
1 0.0461433 0.0461585
0 1 0
0 1 0
0 1 0
0 1 0
0 1 0
0.130739 1 0
0.936263 0.940505 0
1 0.543816 0
1 0.260212 0.0467536
0 1 0
0 1 0
0 1 0
0 1 0
0 1 0
0 1 0
0.16907 1 0
0.968612 0.976257 0
1 0.759625 0
0 1 0
0 1 0
0 1 0
0 1 0
0 1 0
0 1 0
0 1 0
0.392264 1 0
1 1 0
0.0456245 0.0456245 1
0.0456245 0.0456245 1
0.0456245 0.0456245 1
0.113191 0.0466163 1
0.594018 0.0466163 1
1 0.04448 0.940749
1 0.0453956 0.591165
1 0.0463569 0.274327
1 0.0462348 0.112886
0.0456245 0.0456245 1
0.0456245 0.0456245 1
0.0456245 0.0456245 1
0.0634012 0.0458534 1
0.569299 0.0467689 1
1 0.0445106 0.940826
1 0.0454108 0.589471
1 0.0463569 0.272145
1 0.0462348 0.109926
0.0456245 0.0456245 1
0.0456245 0.0456245 1
0.0456245 0.0456245 1
0.0497902 0.045655 1
0.554009 0.0468757 1
1 0.0445258 0.940856
1 0.0454108 0.588464
1 0.0463569 0.270832
1 0.0462196 0.108156
0.0456245 0.0460822 1
0.0456245 0.0459144 1
0.0456245 0.0457923 1
0.0457771 0.0456245 1
0.516503 0.0471199 1
1 0.0445716 0.941039
1 0.0454261 0.586069
1 0.0463569 0.267765
1 0.0462196 0.104067
0.0468757 0.430396 0.98703
0.0471809 0.423285 0.987411
0.047364 0.419013 0.98764
0.047776 0.408865 0.98819
0.371069 0.372519 0.981231
0.993484 0.244709 0.9243
1 0.046891 0.578958
1 0.0463722 0.259083
1 0.0461891 0.0927596
0 0.880873 0.844816
0 0.879362 0.845243
0 0.878462 0.845487
0 0.87628 0.845991
0 0.869703 0.847044
0.797803 0.801038 0.801617
1 0.454948 0.511482
1 0.0708324 0.229648
1 0.0461128 0.0648508
0 1 0.391516
0 1 0.391318
0 1 0.391012
0 1 0.390249
0 1 0.388128
0.0765393 1 0.379294
0.928084 0.932601 0.30605
1 0.531289 0.111055
1 0.240833 0.0493935
0 1 0
0 1 0
0 1 0
0 1 0
0 1 0
0 1 0
0.146151 1 0
0.967865 0.975586 0
1 0.753964 0
0 1 0
0 1 0
0 1 0
0 1 0
0 1 0
0 1 0
0 1 0
0.381353 1 0
1 1 0
0.045655 0.045655 1
0.045655 0.045655 1
0.045655 0.045655 1
0.045655 0.045655 1
0.139025 0.0469673 1
0.739437 0.0456703 1
1 0.0438849 1
1 0.0452277 0.634073
1 0.0458991 0.456962
0.045655 0.045655 1
0.045655 0.045655 1
0.045655 0.045655 1
0.045655 0.045655 1
0.110246 0.0465858 1
0.72958 0.045716 1
1 0.0438849 1
1 0.0452277 0.633509
1 0.0458991 0.455604
0.045655 0.045655 1
0.045655 0.045655 1
0.045655 0.045655 1
0.045655 0.045655 1
0.0960555 0.0463874 1
0.723613 0.0457465 1
1 0.0438849 1
1 0.045243 0.633173
1 0.0458991 0.454795
0.045655 0.045655 1
0.045655 0.045655 1
0.045655 0.045655 1
0.045655 0.045655 1
0.0662699 0.0459297 1
0.709407 0.0458228 1
1 0.0438849 1
1 0.045243 0.632395
1 0.0459144 0.452918
0.0456092 0.0465095 1
0.0456092 0.0463111 1
0.0456092 0.0462501 1
0.0456245 0.0461738 1
0.0461585 0.0459144 1
0.66772 0.0460517 1
1 0.0438849 1
1 0.045243 0.630198
1 0.0459297 0.447715
0.0384527 0.549645 1
0.0387121 0.546838 1
0.0388647 0.545144 1
0.0392004 0.541207 1
0.0401312 0.530159 1
0.482399 0.483894 1
1 0.317281 1
1 0.0475929 0.623468
1 0.0459602 0.433143
0 0.983093 0.951904
0 0.982818 0.952224
0 0.982651 0.952422
0 0.982269 0.952865
0 0.981186 0.954131
0 0.977722 0.957168
0.897078 0.902419 0.902022
1 0.490761 0.550164
1 0.177127 0.381659
0 1 0.423835
0 1 0.423651
0 1 0.423529
0 1 0.42327
0 1 0.422538
0 1 0.420493
0.0876631 1 0.411109
0.960586 0.967895 0.331807
1 0.735393 0.184222
0 1 0
0 1 0
0 1 0
0 1 0
0 1 0
0 1 0
0 1 0
0.349767 1 0
1 1 0
0.045655 0.045655 1
0.045655 0.045655 1
0.045655 0.045655 1
0.045655 0.045655 1
0.045655 0.045655 1
0.150744 0.0471046 1
0.801602 0.0454261 1
1 0.0438239 1
1 0.0443427 0.918929
0.045655 0.045655 1
0.045655 0.045655 1
0.045655 0.045655 1
0.045655 0.045655 1
0.045655 0.045655 1
0.138308 0.046952 1
0.798047 0.0454414 1
1 0.0438239 1
1 0.0443427 0.918349
0.045655 0.045655 1
0.045655 0.045655 1
0.045655 0.045655 1
0.045655 0.045655 1
0.045655 0.045655 1
0.131289 0.0468757 1
0.795941 0.0454414 1
1 0.0438239 1
1 0.044358 0.918013
0.045655 0.045655 1
0.045655 0.045655 1
0.045655 0.045655 1
0.045655 0.045655 1
0.045655 0.045655 1
0.116808 0.0466773 1
0.790951 0.0454566 1
1 0.0438239 1
1 0.044358 0.91722
0.045655 0.045655 1
0.045655 0.045655 1
0.045655 0.045655 1
0.045655 0.045655 1
0.045655 0.045655 1
0.0797589 0.046128 1
0.776837 0.0455177 1
1 0.0438239 1
1 0.044358 0.914992
0.0456092 0.0473182 1
0.0456092 0.0470893 1
0.0456092 0.046952 1
0.0456092 0.0467079 1
0.0456092 0.0463722 1
0.0462806 0.046128 1
0.734813 0.0456855 1
1 0.0438087 1
1 0.0443732 0.908812
0.0330663 0.601907 1
0.0331884 0.60087 1
0.0332647 0.600244 1
0.0334325 0.598795 1
0.0338903 0.594781 1
0.0351415 0.58349 1
0.531075 0.53257 1
1 0.348898 1
1 0.0509041 0.888441
0 1 0.98349
0 1 0.983597
0 1 0.983658
0 1 0.983795
0 1 0.984207
0 1 0.985321
0 1 0.988067
0.932906 0.939864 0.938491
1 0.67686 0.735744
0 1 0.598459
0 1 0.598276
0 1 0.598184
0 1 0.59794
0 1 0.597269
0 1 0.595422
0 1 0.590295
0.235599 1 0.566583
1 1 0.481819
0.045655 0.045655 1
0.045655 0.045655 1
0.045655 0.045655 1
0.045655 0.045655 1
0.045655 0.045655 1
0.045655 0.045655 1
0.293523 0.0478523 1
0.979049 0.0446326 1
1 0.0437781 1
0.045655 0.045655 1
0.045655 0.045655 1
0.045655 0.045655 1
0.045655 0.045655 1
0.045655 0.045655 1
0.045655 0.045655 1
0.287816 0.0478523 1
0.977798 0.0446479 1
1 0.0437781 1
0.045655 0.045655 1
0.045655 0.045655 1
0.045655 0.045655 1
0.045655 0.045655 1
0.045655 0.045655 1
0.045655 0.045655 1
0.284398 0.0478523 1
0.97705 0.0446479 1
1 0.0437781 1
0.045655 0.045655 1
0.045655 0.045655 1
0.045655 0.045655 1
0.045655 0.045655 1
0.045655 0.045655 1
0.045655 0.045655 1
0.276295 0.0478523 1
0.975296 0.0446632 1
1 0.0437781 1
0.045655 0.045655 1
0.045655 0.045655 1
0.045655 0.045655 1
0.045655 0.045655 1
0.045655 0.045655 1
0.045655 0.045655 1
0.252888 0.0478065 1
0.970428 0.0446937 1
1 0.0437781 1
0.045655 0.045655 1
0.045655 0.045655 1
0.045655 0.045655 1
0.045655 0.045655 1
0.045655 0.045655 1
0.045655 0.045655 1
0.177462 0.0473793 1
0.956542 0.0447852 1
1 0.0437781 1
0.0467231 0.0725719 1
0.0466773 0.0715496 1
0.0466468 0.0709544 1
0.0465858 0.0695506 1
0.0464332 0.0661631 1
0.046128 0.0597391 1
0.0559548 0.0491188 1
0.913863 0.0450141 1
1 0.0437781 1
0 0.750271 1
0 0.749859 1
0 0.749599 1
0 0.74902 1
0 0.747417 1
0 0.742947 1
0 0.730373 1
0.664408 0.665812 1
1 0.536446 1
0 1 1
0 1 1
0 1 1
0 1 1
0 1 1
0 1 1
0 1 1
0.0475013 1 1
0.999908 0.999435 0.999435
