assets/luts/AppleLog2_to_Rec709_33_Grid.cube
TITLE "Generated by Resolve"
LUT_3D_SIZE 5
0.0422065 0.0422065 0.0422065
0.273823 0.0467994 0.0467994
0.834333 0.0466316 0.0466316
1 0.0461433 0.0461585
1 0.0461433 0.0461585
0.0509499 0.191333 0.0509499
0.160098 0.160906 0.0512856
0.8056 0.0511635 0.0464485
1 0.0461433 0.0461585
1 0.0461433 0.0461585
0.0355688 0.685222 0.0355688
0.0362402 0.678019 0.0362402
0.625406 0.627039 0.023743
1 0.113069 0.0471504
1 0.0461433 0.0461585
0 1 0
0 1 0
0 1 0
0.938003 0.942107 0
1 0.272129 0.0463111
0 1 0
0 1 0
0 1 0
0 1 0
1 1 0
0.043473 0.043473 0.172274
0.235981 0.0471809 0.162112
0.824308 0.0467689 0.110079
1 0.0461433 0.0461585
1 0.0461433 0.0461585
0.0496071 0.144549 0.122545
0.108476 0.10927 0.109392
0.798535 0.047013 0.062501
1 0.0461433 0.0461585
1 0.0461433 0.0461585
0.0365759 0.67425 0.0365759
0.037232 0.666941 0.0372168
0.613718 0.615305 0.026688
1 0.0990311 0.0468299
1 0.0461433 0.0461585
0 1 0
0 1 0
0 1 0
0.937606 0.941741 0
1 0.269368 0.0464179
0 1 0
0 1 0
0 1 0
0 1 0
1 1 0
0.0450294 0.0450294 0.72221
0.0802777 0.045655 0.717739
0.784939 0.0461738 0.668986
1 0.0463722 0.250828
1 0.0461433 0.0461585
0.0449989 0.0450141 0.704341
0.0449836 0.0449836 0.700221
0.75555 0.0462501 0.662348
1 0.0463874 0.241459
1 0.0461433 0.0461585
0.0360876 0.625772 0.592554
0.0369116 0.617304 0.591684
0.564248 0.565744 0.566339
1 0.061387 0.204959
1 0.0461433 0.0461585
0 1 0
0 1 0
0 1 0
0.936263 0.940505 0
1 0.260212 0.0467536
0 1 0
0 1 0
0 1 0
0 1 0
1 1 0
0.045655 0.045655 1
0.045655 0.045655 1
0.139025 0.0469673 1
1 0.0438849 1
1 0.0458991 0.456962
0.045655 0.045655 1
0.045655 0.045655 1
0.0960555 0.0463874 1
1 0.0438849 1
1 0.0458991 0.454795
0.0456092 0.0465095 1
0.0456092 0.0462501 1
0.0461585 0.0459144 1
1 0.0438849 1
1 0.0459297 0.447715
0 0.983093 0.951904
0 0.982651 0.952422
0 0.981186 0.954131
0.897078 0.902419 0.902022
1 0.177127 0.381659
0 1 0
0 1 0
0 1 0
0 1 0
1 1 0
0.045655 0.045655 1
0.045655 0.045655 1
0.045655 0.045655 1
0.293523 0.0478523 1
1 0.0437781 1
0.045655 0.045655 1
0.045655 0.045655 1
0.045655 0.045655 1
0.284398 0.0478523 1
1 0.0437781 1
0.045655 0.045655 1
0.045655 0.045655 1
0.045655 0.045655 1
0.252888 0.0478065 1
1 0.0437781 1
0.0467231 0.0725719 1
0.0466468 0.0709544 1
0.0464332 0.0661631 1
0.0559548 0.0491188 1
1 0.0437781 1
0 1 1
0 1 1
0 1 1
0 1 1
0.999908 0.999435 0.999435
