assets/luts/LC_Crushed_Blacks.cube
# Created by ComfyUI-Darkroom (AKURATE)
TITLE "Lonecat Darkroom Grade"
LUT_3D_SIZE 5
DOMAIN_MIN 0.0 0.0 0.0
DOMAIN_MAX 1.0 1.0 1.0
0.000000 0.000000 0.000000
0.199426 0.000000 0.000000
0.444389 0.000000 0.000000
0.752352 0.000000 0.000000
1.000000 0.000000 0.000000
0.000000 0.199426 0.000000
0.199426 0.199426 0.000000
0.444389 0.199426 0.000000
0.752352 0.199426 0.000000
1.000000 0.199426 0.000000
0.000000 0.444389 0.000000
0.199426 0.444389 0.000000
0.444389 0.444389 0.000000
0.752352 0.444389 0.000000
1.000000 0.444389 0.000000
0.000000 0.752352 0.000000
0.199426 0.752352 0.000000
0.444389 0.752352 0.000000
0.752352 0.752352 0.000000
1.000000 0.752352 0.000000
0.000000 1.000000 0.000000
0.199426 1.000000 0.000000
0.444389 1.000000 0.000000
0.752352 1.000000 0.000000
1.000000 1.000000 0.000000
0.000000 0.000000 0.199426
0.199426 0.000000 0.199426
0.444389 0.000000 0.199426
0.752352 0.000000 0.199426
1.000000 0.000000 0.199426
0.000000 0.199426 0.199426
0.199426 0.199426 0.199426
0.444389 0.199426 0.199426
0.752352 0.199426 0.199426
1.000000 0.199426 0.199426
0.000000 0.444389 0.199426
0.199426 0.444389 0.199426
0.444389 0.444389 0.199426
0.752352 0.444389 0.199426
1.000000 0.444389 0.199426
0.000000 0.752352 0.199426
0.199426 0.752352 0.199426
0.444389 0.752352 0.199426
0.752352 0.752352 0.199426
1.000000 0.752352 0.199426
0.000000 1.000000 0.199426
0.199426 1.000000 0.199426
0.444389 1.000000 0.199426
0.752352 1.000000 0.199426
1.000000 1.000000 0.199426
0.000000 0.000000 0.444389
0.199426 0.000000 0.444389
0.444389 0.000000 0.444389
0.752352 0.000000 0.444389
1.000000 0.000000 0.444389
0.000000 0.199426 0.444389
0.199426 0.199426 0.444389
0.444389 0.199426 0.444389
0.752352 0.199426 0.444389
1.000000 0.199426 0.444389
0.000000 0.444389 0.444389
0.199426 0.444389 0.444389
0.444389 0.444389 0.444389
0.752352 0.444389 0.444389
1.000000 0.444389 0.444389
0.000000 0.752352 0.444389
0.199426 0.752352 0.444389
0.444389 0.752352 0.444389
0.752352 0.752352 0.444389
1.000000 0.752352 0.444389
0.000000 1.000000 0.444389
0.199426 1.000000 0.444389
0.444389 1.000000 0.444389
0.752352 1.000000 0.444389
1.000000 1.000000 0.444389
0.000000 0.000000 0.752352
0.199426 0.000000 0.752352
0.444389 0.000000 0.752352
0.752352 0.000000 0.752352
1.000000 0.000000 0.752352
0.000000 0.199426 0.752352
0.199426 0.199426 0.752352
0.444389 0.199426 0.752352
0.752352 0.199426 0.752352
1.000000 0.199426 0.752352
0.000000 0.444389 0.752352
0.199426 0.444389 0.752352
0.444389 0.444389 0.752352
0.752352 0.444389 0.752352
1.000000 0.444389 0.752352
0.000000 0.752352 0.752352
0.199426 0.752352 0.752352
0.444389 0.752352 0.752352
0.752352 0.752352 0.752352
1.000000 0.752352 0.752352
0.000000 1.000000 0.752352
0.199426 1.000000 0.752352
0.444389 1.000000 0.752352
0.752352 1.000000 0.752352
1.000000 1.000000 0.752352
0.000000 0.000000 1.000000
0.199426 0.000000 1.000000
0.444389 0.000000 1.000000
0.752352 0.000000 1.000000
1.000000 0.000000 1.000000
0.000000 0.199426 1.000000
0.199426 0.199426 1.000000
0.444389 0.199426 1.000000
0.752352 0.199426 1.000000
1.000000 0.199426 1.000000
0.000000 0.444389 1.000000
0.199426 0.444389 1.000000
0.444389 0.444389 1.000000
0.752352 0.444389 1.000000
1.000000 0.444389 1.000000
0.000000 0.752352 1.000000
0.199426 0.752352 1.000000
0.444389 0.752352 1.000000
0.752352 0.752352 1.000000
1.000000 0.752352 1.000000
0.000000 1.000000 1.000000
0.199426 1.000000 1.000000
0.444389 1.000000 1.000000
0.752352 1.000000 1.000000
1.000000 1.000000 1.000000
