assets/luts/LC_Crushed_Blacks.cube
# Created by ComfyUI-Darkroom (AKURATE)
TITLE "Lonecat Darkroom Grade"
LUT_3D_SIZE 33
DOMAIN_MIN 0.0 0.0 0.0
DOMAIN_MAX 1.0 1.0 1.0
0.000000 0.000000 0.000000
0.018822 0.000000 0.000000
0.040295 0.000000 0.000000
0.065952 0.000000 0.000000
0.091860 0.000000 0.000000
0.118092 0.000000 0.000000
0.144718 0.000000 0.000000
0.171808 0.000000 0.000000
0.199426 0.000000 0.000000
0.227631 0.000000 0.000000
0.256473 0.000000 0.000000
0.285995 0.000000 0.000000
0.316226 0.000000 0.000000
0.347184 0.000000 0.000000
0.378874 0.000000 0.000000
0.411285 0.000000 0.000000
0.444389 0.000000 0.000000
0.478144 0.000000 0.000000
0.513593 0.000000 0.000000
0.552268 0.000000 0.000000
0.593058 0.000000 0.000000
0.634740 0.000000 0.000000
0.676035 0.000000 0.000000
0.715573 0.000000 0.000000
0.752352 0.000000 0.000000
0.788583 0.000000 0.000000
0.824206 0.000000 0.000000
0.858481 0.000000 0.000000
0.890576 0.000000 0.000000
0.920301 0.000000 0.000000
0.948575 0.000000 0.000000
0.975223 0.000000 0.000000
1.000000 0.000000 0.000000
0.000000 0.018822 0.000000
0.018822 0.018822 0.000000
0.040295 0.018822 0.000000
0.065952 0.018822 0.000000
0.091860 0.018822 0.000000
0.118092 0.018822 0.000000
0.144718 0.018822 0.000000
0.171808 0.018822 0.000000
0.199426 0.018822 0.000000
0.227631 0.018822 0.000000
0.256473 0.018822 0.000000
0.285995 0.018822 0.000000
0.316226 0.018822 0.000000
0.347184 0.018822 0.000000
0.378874 0.018822 0.000000
0.411285 0.018822 0.000000
0.444389 0.018822 0.000000
0.478144 0.018822 0.000000
0.513593 0.018822 0.000000
0.552268 0.018822 0.000000
0.593058 0.018822 0.000000
0.634740 0.018822 0.000000
0.676035 0.018822 0.000000
0.715573 0.018822 0.000000
0.752352 0.018822 0.000000
0.788583 0.018822 0.000000
0.824206 0.018822 0.000000
0.858481 0.018822 0.000000
0.890576 0.018822 0.000000
0.920301 0.018822 0.000000
0.948575 0.018822 0.000000
0.975223 0.018822 0.000000
1.000000 0.018822 0.000000
0.000000 0.040295 0.000000
0.018822 0.040295 0.000000
0.040295 0.040295 0.000000
0.065952 0.040295 0.000000
0.091860 0.040295 0.000000
0.118092 0.040295 0.000000
0.144718 0.040295 0.000000
0.171808 0.040295 0.000000
0.199426 0.040295 0.000000
0.227631 0.040295 0.000000
0.256473 0.040295 0.000000
0.285995 0.040295 0.000000
0.316226 0.040295 0.000000
0.347184 0.040295 0.000000
0.378874 0.040295 0.000000
0.411285 0.040295 0.000000
0.444389 0.040295 0.000000
0.478144 0.040295 0.000000
0.513593 0.040295 0.000000
0.552268 0.040295 0.000000
0.593058 0.040295 0.000000
0.634740 0.040295 0.000000
0.676035 0.040295 0.000000
0.715573 0.040295 0.000000
0.752352 0.040295 0.000000
0.788583 0.040295 0.000000
0.824206 0.040295 0.000000
0.858481 0.040295 0.000000
0.890576 0.040295 0.000000
0.920301 0.040295 0.000000
0.948575 0.040295 0.000000
0.975223 0.040295 0.000000
1.000000 0.040295 0.000000
0.000000 0.065952 0.000000
0.018822 0.065952 0.000000
0.040295 0.065952 0.000000
0.065952 0.065952 0.000000
0.091860 0.065952 0.000000
0.118092 0.065952 0.000000
0.144718 0.065952 0.000000
0.171808 0.065952 0.000000
0.199426 0.065952 0.000000
0.227631 0.065952 0.000000
0.256473 0.065952 0.000000
0.285995 0.065952 0.000000
0.316226 0.065952 0.000000
0.347184 0.065952 0.000000
0.378874 0.065952 0.000000
0.411285 0.065952 0.000000
0.444389 0.065952 0.000000
0.478144 0.065952 0.000000
0.513593 0.065952 0.000000
0.552268 0.065952 0.000000
0.593058 0.065952 0.000000
0.634740 0.065952 0.000000
0.676035 0.065952 0.000000
0.715573 0.065952 0.000000
0.752352 0.065952 0.000000
0.788583 0.065952 0.000000
0.824206 0.065952 0.000000
0.858481 0.065952 0.000000
0.890576 0.065952 0.000000
0.920301 0.065952 0.000000
0.948575 0.065952 0.000000
0.975223 0.065952 0.000000
1.000000 0.065952 0.000000
0.000000 0.091860 0.000000
0.018822 0.091860 0.000000
0.040295 0.091860 0.000000
0.065952 0.091860 0.000000
0.091860 0.091860 0.000000
0.118092 0.091860 0.000000
0.144718 0.091860 0.000000
0.171808 0.091860 0.000000
0.199426 0.091860 0.000000
0.227631 0.091860 0.000000
0.256473 0.091860 0.000000
0.285995 0.091860 0.000000
0.316226 0.091860 0.000000
0.347184 0.091860 0.000000
0.378874 0.091860 0.000000
0.411285 0.091860 0.000000
0.444389 0.091860 0.000000
0.478144 0.091860 0.000000
0.513593 0.091860 0.000000
0.552268 0.091860 0.000000
0.593058 0.091860 0.000000
0.634740 0.091860 0.000000
0.676035 0.091860 0.000000
0.715573 0.091860 0.000000
0.752352 0.091860 0.000000
0.788583 0.091860 0.000000
0.824206 0.091860 0.000000
0.858481 0.091860 0.000000
0.890576 0.091860 0.000000
0.920301 0.091860 0.000000
0.948575 0.091860 0.000000
0.975223 0.091860 0.000000
1.000000 0.091860 0.000000
0.000000 0.118092 0.000000
0.018822 0.118092 0.000000
0.040295 0.118092 0.000000
0.065952 0.118092 0.000000
0.091860 0.118092 0.000000
0.118092 0.118092 0.000000
0.144718 0.118092 0.000000
0.171808 0.118092 0.000000
0.199426 0.118092 0.000000
0.227631 0.118092 0.000000
0.256473 0.118092 0.000000
0.285995 0.118092 0.000000
0.316226 0.118092 0.000000
0.347184 0.118092 0.000000
0.378874 0.118092 0.000000
0.411285 0.118092 0.000000
0.444389 0.118092 0.000000
0.478144 0.118092 0.000000
0.513593 0.118092 0.000000
0.552268 0.118092 0.000000
0.593058 0.118092 0.000000
0.634740 0.118092 0.000000
0.676035 0.118092 0.000000
0.715573 0.118092 0.000000
0.752352 0.118092 0.000000
0.788583 0.118092 0.000000
0.824206 0.118092 0.000000
0.858481 0.118092 0.000000
0.890576 0.118092 0.000000
0.920301 0.118092 0.000000
0.948575 0.118092 0.000000
0.975223 0.118092 0.000000
1.000000 0.118092 0.000000
0.000000 0.144718 0.000000
0.018822 0.144718 0.000000
0.040295 0.144718 0.000000
0.065952 0.144718 0.000000
0.091860 0.144718 0.000000
0.118092 0.144718 0.000000
0.144718 0.144718 0.000000
0.171808 0.144718 0.000000
0.199426 0.144718 0.000000
0.227631 0.144718 0.000000
0.256473 0.144718 0.000000
0.285995 0.144718 0.000000
0.316226 0.144718 0.000000
0.347184 0.144718 0.000000
0.378874 0.144718 0.000000
0.411285 0.144718 0.000000
0.444389 0.144718 0.000000
0.478144 0.144718 0.000000
0.513593 0.144718 0.000000
0.552268 0.144718 0.000000
0.593058 0.144718 0.000000
0.634740 0.144718 0.000000
0.676035 0.144718 0.000000
0.715573 0.144718 0.000000
0.752352 0.144718 0.000000
0.788583 0.144718 0.000000
0.824206 0.144718 0.000000
0.858481 0.144718 0.000000
0.890576 0.144718 0.000000
0.920301 0.144718 0.000000
0.948575 0.144718 0.000000
0.975223 0.144718 0.000000
1.000000 0.144718 0.000000
0.000000 0.171808 0.000000
0.018822 0.171808 0.000000
0.040295 0.171808 0.000000
0.065952 0.171808 0.000000
0.091860 0.171808 0.000000
0.118092 0.171808 0.000000
0.144718 0.171808 0.000000
0.171808 0.171808 0.000000
0.199426 0.171808 0.000000
0.227631 0.171808 0.000000
0.256473 0.171808 0.000000
0.285995 0.171808 0.000000
0.316226 0.171808 0.000000
0.347184 0.171808 0.000000
0.378874 0.171808 0.000000
0.411285 0.171808 0.000000
0.444389 0.171808 0.000000
0.478144 0.171808 0.000000
0.513593 0.171808 0.000000
0.552268 0.171808 0.000000
0.593058 0.171808 0.000000
0.634740 0.171808 0.000000
0.676035 0.171808 0.000000
0.715573 0.171808 0.000000
0.752352 0.171808 0.000000
0.788583 0.171808 0.000000
0.824206 0.171808 0.000000
0.858481 0.171808 0.000000
0.890576 0.171808 0.000000
0.920301 0.171808 0.000000
0.948575 0.171808 0.000000
0.975223 0.171808 0.000000
1.000000 0.171808 0.000000
0.000000 0.199426 0.000000
0.018822 0.199426 0.000000
0.040295 0.199426 0.000000
0.065952 0.199426 0.000000
0.091860 0.199426 0.000000
0.118092 0.199426 0.000000
0.144718 0.199426 0.000000
0.171808 0.199426 0.000000
0.199426 0.199426 0.000000
0.227631 0.199426 0.000000
0.256473 0.199426 0.000000
0.285995 0.199426 0.000000
0.316226 0.199426 0.000000
0.347184 0.199426 0.000000
0.378874 0.199426 0.000000
0.411285 0.199426 0.000000
0.444389 0.199426 0.000000
0.478144 0.199426 0.000000
0.513593 0.199426 0.000000
0.552268 0.199426 0.000000
0.593058 0.199426 0.000000
0.634740 0.199426 0.000000
0.676035 0.199426 0.000000
0.715573 0.199426 0.000000
0.752352 0.199426 0.000000
0.788583 0.199426 0.000000
0.824206 0.199426 0.000000
0.858481 0.199426 0.000000
0.890576 0.199426 0.000000
0.920301 0.199426 0.000000
0.948575 0.199426 0.000000
0.975223 0.199426 0.000000
1.000000 0.199426 0.000000
0.000000 0.227631 0.000000
0.018822 0.227631 0.000000
0.040295 0.227631 0.000000
0.065952 0.227631 0.000000
0.091860 0.227631 0.000000
0.118092 0.227631 0.000000
0.144718 0.227631 0.000000
0.171808 0.227631 0.000000
0.199426 0.227631 0.000000
0.227631 0.227631 0.000000
0.256473 0.227631 0.000000
0.285995 0.227631 0.000000
0.316226 0.227631 0.000000
0.347184 0.227631 0.000000
0.378874 0.227631 0.000000
0.411285 0.227631 0.000000
0.444389 0.227631 0.000000
0.478144 0.227631 0.000000
0.513593 0.227631 0.000000
0.552268 0.227631 0.000000
0.593058 0.227631 0.000000
0.634740 0.227631 0.000000
0.676035 0.227631 0.000000
0.715573 0.227631 0.000000
0.752352 0.227631 0.000000
0.788583 0.227631 0.000000
0.824206 0.227631 0.000000
0.858481 0.227631 0.000000
0.890576 0.227631 0.000000
0.920301 0.227631 0.000000
0.948575 0.227631 0.000000
0.975223 0.227631 0.000000
1.000000 0.227631 0.000000
0.000000 0.256473 0.000000
0.018822 0.256473 0.000000
0.040295 0.256473 0.000000
0.065952 0.256473 0.000000
0.091860 0.256473 0.000000
0.118092 0.256473 0.000000
0.144718 0.256473 0.000000
0.171808 0.256473 0.000000
0.199426 0.256473 0.000000
0.227631 0.256473 0.000000
0.256473 0.256473 0.000000
0.285995 0.256473 0.000000
0.316226 0.256473 0.000000
0.347184 0.256473 0.000000
0.378874 0.256473 0.000000
0.411285 0.256473 0.000000
0.444389 0.256473 0.000000
0.478144 0.256473 0.000000
0.513593 0.256473 0.000000
0.552268 0.256473 0.000000
0.593058 0.256473 0.000000
0.634740 0.256473 0.000000
0.676035 0.256473 0.000000
0.715573 0.256473 0.000000
0.752352 0.256473 0.000000
0.788583 0.256473 0.000000
0.824206 0.256473 0.000000
0.858481 0.256473 0.000000
0.890576 0.256473 0.000000
0.920301 0.256473 0.000000
0.948575 0.256473 0.000000
0.975223 0.256473 0.000000
1.000000 0.256473 0.000000
0.000000 0.285995 0.000000
0.018822 0.285995 0.000000
0.040295 0.285995 0.000000
0.065952 0.285995 0.000000
0.091860 0.285995 0.000000
0.118092 0.285995 0.000000
0.144718 0.285995 0.000000
0.171808 0.285995 0.000000
0.199426 0.285995 0.000000
0.227631 0.285995 0.000000
0.256473 0.285995 0.000000
0.285995 0.285995 0.000000
0.316226 0.285995 0.000000
0.347184 0.285995 0.000000
0.378874 0.285995 0.000000
0.411285 0.285995 0.000000
0.444389 0.285995 0.000000
0.478144 0.285995 0.000000
0.513593 0.285995 0.000000
0.552268 0.285995 0.000000
0.593058 0.285995 0.000000
0.634740 0.285995 0.000000
0.676035 0.285995 0.000000
0.715573 0.285995 0.000000
0.752352 0.285995 0.000000
0.788583 0.285995 0.000000
0.824206 0.285995 0.000000
0.858481 0.285995 0.000000
0.890576 0.285995 0.000000
0.920301 0.285995 0.000000
0.948575 0.285995 0.000000
0.975223 0.285995 0.000000
1.000000 0.285995 0.000000
0.000000 0.316226 0.000000
0.018822 0.316226 0.000000
0.040295 0.316226 0.000000
0.065952 0.316226 0.000000
0.091860 0.316226 0.000000
0.118092 0.316226 0.000000
0.144718 0.316226 0.000000
0.171808 0.316226 0.000000
0.199426 0.316226 0.000000
0.227631 0.316226 0.000000
0.256473 0.316226 0.000000
0.285995 0.316226 0.000000
0.316226 0.316226 0.000000
0.347184 0.316226 0.000000
0.378874 0.316226 0.000000
0.411285 0.316226 0.000000
0.444389 0.316226 0.000000
0.478144 0.316226 0.000000
0.513593 0.316226 0.000000
0.552268 0.316226 0.000000
0.593058 0.316226 0.000000
0.634740 0.316226 0.000000
0.676035 0.316226 0.000000
0.715573 0.316226 0.000000
0.752352 0.316226 0.000000
0.788583 0.316226 0.000000
0.824206 0.316226 0.000000
0.858481 0.316226 0.000000
0.890576 0.316226 0.000000
0.920301 0.316226 0.000000
0.948575 0.316226 0.000000
0.975223 0.316226 0.000000
1.000000 0.316226 0.000000
0.000000 0.347184 0.000000
0.018822 0.347184 0.000000
0.040295 0.347184 0.000000
0.065952 0.347184 0.000000
0.091860 0.347184 0.000000
0.118092 0.347184 0.000000
0.144718 0.347184 0.000000
0.171808 0.347184 0.000000
0.199426 0.347184 0.000000
0.227631 0.347184 0.000000
0.256473 0.347184 0.000000
0.285995 0.347184 0.000000
0.316226 0.347184 0.000000
0.347184 0.347184 0.000000
0.378874 0.347184 0.000000
0.411285 0.347184 0.000000
0.444389 0.347184 0.000000
0.478144 0.347184 0.000000
0.513593 0.347184 0.000000
0.552268 0.347184 0.000000
0.593058 0.347184 0.000000
0.634740 0.347184 0.000000
0.676035 0.347184 0.000000
0.715573 0.347184 0.000000
0.752352 0.347184 0.000000
0.788583 0.347184 0.000000
0.824206 0.347184 0.000000
0.858481 0.347184 0.000000
0.890576 0.347184 0.000000
0.920301 0.347184 0.000000
0.948575 0.347184 0.000000
0.975223 0.347184 0.000000
1.000000 0.347184 0.000000
0.000000 0.378874 0.000000
0.018822 0.378874 0.000000
0.040295 0.378874 0.000000
0.065952 0.378874 0.000000
0.091860 0.378874 0.000000
0.118092 0.378874 0.000000
0.144718 0.378874 0.000000
0.171808 0.378874 0.000000
0.199426 0.378874 0.000000
0.227631 0.378874 0.000000
0.256473 0.378874 0.000000
0.285995 0.378874 0.000000
0.316226 0.378874 0.000000
0.347184 0.378874 0.000000
0.378874 0.378874 0.000000
0.411285 0.378874 0.000000
0.444389 0.378874 0.000000
0.478144 0.378874 0.000000
0.513593 0.378874 0.000000
0.552268 0.378874 0.000000
0.593058 0.378874 0.000000
0.634740 0.378874 0.000000
0.676035 0.378874 0.000000
0.715573 0.378874 0.000000
0.752352 0.378874 0.000000
0.788583 0.378874 0.000000
0.824206 0.378874 0.000000
0.858481 0.378874 0.000000
0.890576 0.378874 0.000000
0.920301 0.378874 0.000000
0.948575 0.378874 0.000000
0.975223 0.378874 0.000000
1.000000 0.378874 0.000000
0.000000 0.411285 0.000000
0.018822 0.411285 0.000000
0.040295 0.411285 0.000000
0.065952 0.411285 0.000000
0.091860 0.411285 0.000000
0.118092 0.411285 0.000000
0.144718 0.411285 0.000000
0.171808 0.411285 0.000000
0.199426 0.411285 0.000000
0.227631 0.411285 0.000000
0.256473 0.411285 0.000000
0.285995 0.411285 0.000000
0.316226 0.411285 0.000000
0.347184 0.411285 0.000000
0.378874 0.411285 0.000000
0.411285 0.411285 0.000000
0.444389 0.411285 0.000000
0.478144 0.411285 0.000000
0.513593 0.411285 0.000000
0.552268 0.411285 0.000000
0.593058 0.411285 0.000000
0.634740 0.411285 0.000000
0.676035 0.411285 0.000000
0.715573 0.411285 0.000000
0.752352 0.411285 0.000000
0.788583 0.411285 0.000000
0.824206 0.411285 0.000000
0.858481 0.411285 0.000000
0.890576 0.411285 0.000000
0.920301 0.411285 0.000000
0.948575 0.411285 0.000000
0.975223 0.411285 0.000000
1.000000 0.411285 0.000000
0.000000 0.444389 0.000000
0.018822 0.444389 0.000000
0.040295 0.444389 0.000000
0.065952 0.444389 0.000000
0.091860 0.444389 0.000000
0.118092 0.444389 0.000000
0.144718 0.444389 0.000000
0.171808 0.444389 0.000000
0.199426 0.444389 0.000000
0.227631 0.444389 0.000000
0.256473 0.444389 0.000000
0.285995 0.444389 0.000000
0.316226 0.444389 0.000000
0.347184 0.444389 0.000000
0.378874 0.444389 0.000000
0.411285 0.444389 0.000000
0.444389 0.444389 0.000000
0.478144 0.444389 0.000000
0.513593 0.444389 0.000000
0.552268 0.444389 0.000000
0.593058 0.444389 0.000000
0.634740 0.444389 0.000000
0.676035 0.444389 0.000000
0.715573 0.444389 0.000000
0.752352 0.444389 0.000000
0.788583 0.444389 0.000000
0.824206 0.444389 0.000000
0.858481 0.444389 0.000000
0.890576 0.444389 0.000000
0.920301 0.444389 0.000000
0.948575 0.444389 0.000000
0.975223 0.444389 0.000000
1.000000 0.444389 0.000000
0.000000 0.478144 0.000000
0.018822 0.478144 0.000000
0.040295 0.478144 0.000000
0.065952 0.478144 0.000000
0.091860 0.478144 0.000000
0.118092 0.478144 0.000000
0.144718 0.478144 0.000000
0.171808 0.478144 0.000000
0.199426 0.478144 0.000000
0.227631 0.478144 0.000000
0.256473 0.478144 0.000000
0.285995 0.478144 0.000000
0.316226 0.478144 0.000000
0.347184 0.478144 0.000000
0.378874 0.478144 0.000000
0.411285 0.478144 0.000000
0.444389 0.478144 0.000000
0.478144 0.478144 0.000000
0.513593 0.478144 0.000000
0.552268 0.478144 0.000000
0.593058 0.478144 0.000000
0.634740 0.478144 0.000000
0.676035 0.478144 0.000000
0.715573 0.478144 0.000000
0.752352 0.478144 0.000000
0.788583 0.478144 0.000000
0.824206 0.478144 0.000000
0.858481 0.478144 0.000000
0.890576 0.478144 0.000000
0.920301 0.478144 0.000000
0.948575 0.478144 0.000000
0.975223 0.478144 0.000000
1.000000 0.478144 0.000000
0.000000 0.513593 0.000000
0.018822 0.513593 0.000000
0.040295 0.513593 0.000000
0.065952 0.513593 0.000000
0.091860 0.513593 0.000000
0.118092 0.513593 0.000000
0.144718 0.513593 0.000000
0.171808 0.513593 0.000000
0.199426 0.513593 0.000000
0.227631 0.513593 0.000000
0.256473 0.513593 0.000000
0.285995 0.513593 0.000000
0.316226 0.513593 0.000000
0.347184 0.513593 0.000000
0.378874 0.513593 0.000000
0.411285 0.513593 0.000000
0.444389 0.513593 0.000000
0.478144 0.513593 0.000000
0.513593 0.513593 0.000000
0.552268 0.513593 0.000000
0.593058 0.513593 0.000000
0.634740 0.513593 0.000000
0.676035 0.513593 0.000000
0.715573 0.513593 0.000000
0.752352 0.513593 0.000000
0.788583 0.513593 0.000000
0.824206 0.513593 0.000000
0.858481 0.513593 0.000000
0.890576 0.513593 0.000000
0.920301 0.513593 0.000000
0.948575 0.513593 0.000000
0.975223 0.513593 0.000000
1.000000 0.513593 0.000000
0.000000 0.552268 0.000000
0.018822 0.552268 0.000000
0.040295 0.552268 0.000000
0.065952 0.552268 0.000000
0.091860 0.552268 0.000000
0.118092 0.552268 0.000000
0.144718 0.552268 0.000000
0.171808 0.552268 0.000000
0.199426 0.552268 0.000000
0.227631 0.552268 0.000000
0.256473 0.552268 0.000000
0.285995 0.552268 0.000000
0.316226 0.552268 0.000000
0.347184 0.552268 0.000000
0.378874 0.552268 0.000000
0.411285 0.552268 0.000000
0.444389 0.552268 0.000000
0.478144 0.552268 0.000000
0.513593 0.552268 0.000000
0.552268 0.552268 0.000000
0.593058 0.552268 0.000000
0.634740 0.552268 0.000000
0.676035 0.552268 0.000000
0.715573 0.552268 0.000000
0.752352 0.552268 0.000000
0.788583 0.552268 0.000000
0.824206 0.552268 0.000000
0.858481 0.552268 0.000000
0.890576 0.552268 0.000000
0.920301 0.552268 0.000000
0.948575 0.552268 0.000000
0.975223 0.552268 0.000000
1.000000 0.552268 0.000000
0.000000 0.593058 0.000000
0.018822 0.593058 0.000000
0.040295 0.593058 0.000000
0.065952 0.593058 0.000000
0.091860 0.593058 0.000000
0.118092 0.593058 0.000000
0.144718 0.593058 0.000000
0.171808 0.593058 0.000000
0.199426 0.593058 0.000000
0.227631 0.593058 0.000000
0.256473 0.593058 0.000000
0.285995 0.593058 0.000000
0.316226 0.593058 0.000000
0.347184 0.593058 0.000000
0.378874 0.593058 0.000000
0.411285 0.593058 0.000000
0.444389 0.593058 0.000000
0.478144 0.593058 0.000000
0.513593 0.593058 0.000000
0.552268 0.593058 0.000000
0.593058 0.593058 0.000000
0.634740 0.593058 0.000000
0.676035 0.593058 0.000000
0.715573 0.593058 0.000000
0.752352 0.593058 0.000000
0.788583 0.593058 0.000000
0.824206 0.593058 0.000000
0.858481 0.593058 0.000000
0.890576 0.593058 0.000000
0.920301 0.593058 0.000000
0.948575 0.593058 0.000000
0.975223 0.593058 0.000000
1.000000 0.593058 0.000000
0.000000 0.634740 0.000000
0.018822 0.634740 0.000000
0.040295 0.634740 0.000000
0.065952 0.634740 0.000000
0.091860 0.634740 0.000000
0.118092 0.634740 0.000000
0.144718 0.634740 0.000000
0.171808 0.634740 0.000000
0.199426 0.634740 0.000000
0.227631 0.634740 0.000000
0.256473 0.634740 0.000000
0.285995 0.634740 0.000000
0.316226 0.634740 0.000000
0.347184 0.634740 0.000000
0.378874 0.634740 0.000000
0.411285 0.634740 0.000000
0.444389 0.634740 0.000000
0.478144 0.634740 0.000000
0.513593 0.634740 0.000000
0.552268 0.634740 0.000000
0.593058 0.634740 0.000000
0.634740 0.634740 0.000000
0.676035 0.634740 0.000000
0.715573 0.634740 0.000000
0.752352 0.634740 0.000000
0.788583 0.634740 0.000000
0.824206 0.634740 0.000000
0.858481 0.634740 0.000000
0.890576 0.634740 0.000000
0.920301 0.634740 0.000000
0.948575 0.634740 0.000000
0.975223 0.634740 0.000000
1.000000 0.634740 0.000000
0.000000 0.676035 0.000000
0.018822 0.676035 0.000000
0.040295 0.676035 0.000000
0.065952 0.676035 0.000000
0.091860 0.676035 0.000000
0.118092 0.676035 0.000000
0.144718 0.676035 0.000000
0.171808 0.676035 0.000000
0.199426 0.676035 0.000000
0.227631 0.676035 0.000000
0.256473 0.676035 0.000000
0.285995 0.676035 0.000000
0.316226 0.676035 0.000000
0.347184 0.676035 0.000000
0.378874 0.676035 0.000000
0.411285 0.676035 0.000000
0.444389 0.676035 0.000000
0.478144 0.676035 0.000000
0.513593 0.676035 0.000000
0.552268 0.676035 0.000000
0.593058 0.676035 0.000000
0.634740 0.676035 0.000000
0.676035 0.676035 0.000000
0.715573 0.676035 0.000000
0.752352 0.676035 0.000000
0.788583 0.676035 0.000000
0.824206 0.676035 0.000000
0.858481 0.676035 0.000000
0.890576 0.676035 0.000000
0.920301 0.676035 0.000000
0.948575 0.676035 0.000000
0.975223 0.676035 0.000000
1.000000 0.676035 0.000000
0.000000 0.715573 0.000000
0.018822 0.715573 0.000000
0.040295 0.715573 0.000000
0.065952 0.715573 0.000000
0.091860 0.715573 0.000000
0.118092 0.715573 0.000000
0.144718 0.715573 0.000000
0.171808 0.715573 0.000000
0.199426 0.715573 0.000000
0.227631 0.715573 0.000000
0.256473 0.715573 0.000000
0.285995 0.715573 0.000000
0.316226 0.715573 0.000000
0.347184 0.715573 0.000000
0.378874 0.715573 0.000000
0.411285 0.715573 0.000000
0.444389 0.715573 0.000000
0.478144 0.715573 0.000000
0.513593 0.715573 0.000000
0.552268 0.715573 0.000000
0.593058 0.715573 0.000000
0.634740 0.715573 0.000000
0.676035 0.715573 0.000000
0.715573 0.715573 0.000000
0.752352 0.715573 0.000000
0.788583 0.715573 0.000000
0.824206 0.715573 0.000000
0.858481 0.715573 0.000000
0.890576 0.715573 0.000000
0.920301 0.715573 0.000000
0.948575 0.715573 0.000000
0.975223 0.715573 0.000000
1.000000 0.715573 0.000000
0.000000 0.752352 0.000000
0.018822 0.752352 0.000000
0.040295 0.752352 0.000000
0.065952 0.752352 0.000000
0.091860 0.752352 0.000000
0.118092 0.752352 0.000000
0.144718 0.752352 0.000000
0.171808 0.752352 0.000000
0.199426 0.752352 0.000000
0.227631 0.752352 0.000000
0.256473 0.752352 0.000000
0.285995 0.752352 0.000000
0.316226 0.752352 0.000000
0.347184 0.752352 0.000000
0.378874 0.752352 0.000000
0.411285 0.752352 0.000000
0.444389 0.752352 0.000000
0.478144 0.752352 0.000000
0.513593 0.752352 0.000000
0.552268 0.752352 0.000000
0.593058 0.752352 0.000000
0.634740 0.752352 0.000000
0.676035 0.752352 0.000000
0.715573 0.752352 0.000000
0.752352 0.752352 0.000000
0.788583 0.752352 0.000000
0.824206 0.752352 0.000000
0.858481 0.752352 0.000000
0.890576 0.752352 0.000000
0.920301 0.752352 0.000000
0.948575 0.752352 0.000000
0.975223 0.752352 0.000000
1.000000 0.752352 0.000000
0.000000 0.788583 0.000000
0.018822 0.788583 0.000000
0.040295 0.788583 0.000000
0.065952 0.788583 0.000000
0.091860 0.788583 0.000000
0.118092 0.788583 0.000000
0.144718 0.788583 0.000000
0.171808 0.788583 0.000000
0.199426 0.788583 0.000000
0.227631 0.788583 0.000000
0.256473 0.788583 0.000000
0.285995 0.788583 0.000000
0.316226 0.788583 0.000000
0.347184 0.788583 0.000000
0.378874 0.788583 0.000000
0.411285 0.788583 0.000000
0.444389 0.788583 0.000000
0.478144 0.788583 0.000000
0.513593 0.788583 0.000000
0.552268 0.788583 0.000000
0.593058 0.788583 0.000000
0.634740 0.788583 0.000000
0.676035 0.788583 0.000000
0.715573 0.788583 0.000000
0.752352 0.788583 0.000000
0.788583 0.788583 0.000000
0.824206 0.788583 0.000000
0.858481 0.788583 0.000000
0.890576 0.788583 0.000000
0.920301 0.788583 0.000000
0.948575 0.788583 0.000000
0.975223 0.788583 0.000000
1.000000 0.788583 0.000000
0.000000 0.824206 0.000000
0.018822 0.824206 0.000000
0.040295 0.824206 0.000000
0.065952 0.824206 0.000000
0.091860 0.824206 0.000000
0.118092 0.824206 0.000000
0.144718 0.824206 0.000000
0.171808 0.824206 0.000000
0.199426 0.824206 0.000000
0.227631 0.824206 0.000000
0.256473 0.824206 0.000000
0.285995 0.824206 0.000000
0.316226 0.824206 0.000000
0.347184 0.824206 0.000000
0.378874 0.824206 0.000000
0.411285 0.824206 0.000000
0.444389 0.824206 0.000000
0.478144 0.824206 0.000000
0.513593 0.824206 0.000000
0.552268 0.824206 0.000000
0.593058 0.824206 0.000000
0.634740 0.824206 0.000000
0.676035 0.824206 0.000000
0.715573 0.824206 0.000000
0.752352 0.824206 0.000000
0.788583 0.824206 0.000000
