assets/luts/LC_Crushed_Blacks.cube
# Created by ComfyUI-Darkroom (AKURATE)
TITLE "Lonecat Darkroom Grade"
LUT_3D_SIZE 9
DOMAIN_MIN 0.0 0.0 0.0
DOMAIN_MAX 1.0 1.0 1.0
0.000000 0.000000 0.000000
0.091860 0.000000 0.000000
0.199426 0.000000 0.000000
0.316226 0.000000 0.000000
0.444389 0.000000 0.000000
0.593058 0.000000 0.000000
0.752352 0.000000 0.000000
0.890576 0.000000 0.000000
1.000000 0.000000 0.000000
0.000000 0.091860 0.000000
0.091860 0.091860 0.000000
0.199426 0.091860 0.000000
0.316226 0.091860 0.000000
0.444389 0.091860 0.000000
0.593058 0.091860 0.000000
0.752352 0.091860 0.000000
0.890576 0.091860 0.000000
1.000000 0.091860 0.000000
0.000000 0.199426 0.000000
0.091860 0.199426 0.000000
0.199426 0.199426 0.000000
0.316226 0.199426 0.000000
0.444389 0.199426 0.000000
0.593058 0.199426 0.000000
0.752352 0.199426 0.000000
0.890576 0.199426 0.000000
1.000000 0.199426 0.000000
0.000000 0.316226 0.000000
0.091860 0.316226 0.000000
0.199426 0.316226 0.000000
0.316226 0.316226 0.000000
0.444389 0.316226 0.000000
0.593058 0.316226 0.000000
0.752352 0.316226 0.000000
0.890576 0.316226 0.000000
1.000000 0.316226 0.000000
0.000000 0.444389 0.000000
0.091860 0.444389 0.000000
0.199426 0.444389 0.000000
0.316226 0.444389 0.000000
0.444389 0.444389 0.000000
0.593058 0.444389 0.000000
0.752352 0.444389 0.000000
0.890576 0.444389 0.000000
1.000000 0.444389 0.000000
0.000000 0.593058 0.000000
0.091860 0.593058 0.000000
0.199426 0.593058 0.000000
0.316226 0.593058 0.000000
0.444389 0.593058 0.000000
0.593058 0.593058 0.000000
0.752352 0.593058 0.000000
0.890576 0.593058 0.000000
1.000000 0.593058 0.000000
0.000000 0.752352 0.000000
0.091860 0.752352 0.000000
0.199426 0.752352 0.000000
0.316226 0.752352 0.000000
0.444389 0.752352 0.000000
0.593058 0.752352 0.000000
0.752352 0.752352 0.000000
0.890576 0.752352 0.000000
1.000000 0.752352 0.000000
0.000000 0.890576 0.000000
0.091860 0.890576 0.000000
0.199426 0.890576 0.000000
0.316226 0.890576 0.000000
0.444389 0.890576 0.000000
0.593058 0.890576 0.000000
0.752352 0.890576 0.000000
0.890576 0.890576 0.000000
1.000000 0.890576 0.000000
0.000000 1.000000 0.000000
0.091860 1.000000 0.000000
0.199426 1.000000 0.000000
0.316226 1.000000 0.000000
0.444389 1.000000 0.000000
0.593058 1.000000 0.000000
0.752352 1.000000 0.000000
0.890576 1.000000 0.000000
1.000000 1.000000 0.000000
0.000000 0.000000 0.091860
0.091860 0.000000 0.091860
0.199426 0.000000 0.091860
0.316226 0.000000 0.091860
0.444389 0.000000 0.091860
0.593058 0.000000 0.091860
0.752352 0.000000 0.091860
0.890576 0.000000 0.091860
1.000000 0.000000 0.091860
0.000000 0.091860 0.091860
0.091860 0.091860 0.091860
0.199426 0.091860 0.091860
0.316226 0.091860 0.091860
0.444389 0.091860 0.091860
0.593058 0.091860 0.091860
0.752352 0.091860 0.091860
0.890576 0.091860 0.091860
1.000000 0.091860 0.091860
0.000000 0.199426 0.091860
0.091860 0.199426 0.091860
0.199426 0.199426 0.091860
0.316226 0.199426 0.091860
0.444389 0.199426 0.091860
0.593058 0.199426 0.091860
0.752352 0.199426 0.091860
0.890576 0.199426 0.091860
1.000000 0.199426 0.091860
0.000000 0.316226 0.091860
0.091860 0.316226 0.091860
0.199426 0.316226 0.091860
0.316226 0.316226 0.091860
0.444389 0.316226 0.091860
0.593058 0.316226 0.091860
0.752352 0.316226 0.091860
0.890576 0.316226 0.091860
1.000000 0.316226 0.091860
0.000000 0.444389 0.091860
0.091860 0.444389 0.091860
0.199426 0.444389 0.091860
0.316226 0.444389 0.091860
0.444389 0.444389 0.091860
0.593058 0.444389 0.091860
0.752352 0.444389 0.091860
0.890576 0.444389 0.091860
1.000000 0.444389 0.091860
0.000000 0.593058 0.091860
0.091860 0.593058 0.091860
0.199426 0.593058 0.091860
0.316226 0.593058 0.091860
0.444389 0.593058 0.091860
0.593058 0.593058 0.091860
0.752352 0.593058 0.091860
0.890576 0.593058 0.091860
1.000000 0.593058 0.091860
0.000000 0.752352 0.091860
0.091860 0.752352 0.091860
0.199426 0.752352 0.091860
0.316226 0.752352 0.091860
0.444389 0.752352 0.091860
0.593058 0.752352 0.091860
0.752352 0.752352 0.091860
0.890576 0.752352 0.091860
1.000000 0.752352 0.091860
0.000000 0.890576 0.091860
0.091860 0.890576 0.091860
0.199426 0.890576 0.091860
0.316226 0.890576 0.091860
0.444389 0.890576 0.091860
0.593058 0.890576 0.091860
0.752352 0.890576 0.091860
0.890576 0.890576 0.091860
1.000000 0.890576 0.091860
0.000000 1.000000 0.091860
0.091860 1.000000 0.091860
0.199426 1.000000 0.091860
0.316226 1.000000 0.091860
0.444389 1.000000 0.091860
0.593058 1.000000 0.091860
0.752352 1.000000 0.091860
0.890576 1.000000 0.091860
1.000000 1.000000 0.091860
0.000000 0.000000 0.199426
0.091860 0.000000 0.199426
0.199426 0.000000 0.199426
0.316226 0.000000 0.199426
0.444389 0.000000 0.199426
0.593058 0.000000 0.199426
0.752352 0.000000 0.199426
0.890576 0.000000 0.199426
1.000000 0.000000 0.199426
0.000000 0.091860 0.199426
0.091860 0.091860 0.199426
0.199426 0.091860 0.199426
0.316226 0.091860 0.199426
0.444389 0.091860 0.199426
0.593058 0.091860 0.199426
0.752352 0.091860 0.199426
0.890576 0.091860 0.199426
1.000000 0.091860 0.199426
0.000000 0.199426 0.199426
0.091860 0.199426 0.199426
0.199426 0.199426 0.199426
0.316226 0.199426 0.199426
0.444389 0.199426 0.199426
0.593058 0.199426 0.199426
0.752352 0.199426 0.199426
0.890576 0.199426 0.199426
1.000000 0.199426 0.199426
0.000000 0.316226 0.199426
0.091860 0.316226 0.199426
0.199426 0.316226 0.199426
0.316226 0.316226 0.199426
0.444389 0.316226 0.199426
0.593058 0.316226 0.199426
0.752352 0.316226 0.199426
0.890576 0.316226 0.199426
1.000000 0.316226 0.199426
0.000000 0.444389 0.199426
0.091860 0.444389 0.199426
0.199426 0.444389 0.199426
0.316226 0.444389 0.199426
0.444389 0.444389 0.199426
0.593058 0.444389 0.199426
0.752352 0.444389 0.199426
0.890576 0.444389 0.199426
1.000000 0.444389 0.199426
0.000000 0.593058 0.199426
0.091860 0.593058 0.199426
0.199426 0.593058 0.199426
0.316226 0.593058 0.199426
0.444389 0.593058 0.199426
0.593058 0.593058 0.199426
0.752352 0.593058 0.199426
0.890576 0.593058 0.199426
1.000000 0.593058 0.199426
0.000000 0.752352 0.199426
0.091860 0.752352 0.199426
0.199426 0.752352 0.199426
0.316226 0.752352 0.199426
0.444389 0.752352 0.199426
0.593058 0.752352 0.199426
0.752352 0.752352 0.199426
0.890576 0.752352 0.199426
1.000000 0.752352 0.199426
0.000000 0.890576 0.199426
0.091860 0.890576 0.199426
0.199426 0.890576 0.199426
0.316226 0.890576 0.199426
0.444389 0.890576 0.199426
0.593058 0.890576 0.199426
0.752352 0.890576 0.199426
0.890576 0.890576 0.199426
1.000000 0.890576 0.199426
0.000000 1.000000 0.199426
0.091860 1.000000 0.199426
0.199426 1.000000 0.199426
0.316226 1.000000 0.199426
0.444389 1.000000 0.199426
0.593058 1.000000 0.199426
0.752352 1.000000 0.199426
0.890576 1.000000 0.199426
1.000000 1.000000 0.199426
0.000000 0.000000 0.316226
0.091860 0.000000 0.316226
0.199426 0.000000 0.316226
0.316226 0.000000 0.316226
0.444389 0.000000 0.316226
0.593058 0.000000 0.316226
0.752352 0.000000 0.316226
0.890576 0.000000 0.316226
1.000000 0.000000 0.316226
0.000000 0.091860 0.316226
0.091860 0.091860 0.316226
0.199426 0.091860 0.316226
0.316226 0.091860 0.316226
0.444389 0.091860 0.316226
0.593058 0.091860 0.316226
0.752352 0.091860 0.316226
0.890576 0.091860 0.316226
1.000000 0.091860 0.316226
0.000000 0.199426 0.316226
0.091860 0.199426 0.316226
0.199426 0.199426 0.316226
0.316226 0.199426 0.316226
0.444389 0.199426 0.316226
0.593058 0.199426 0.316226
0.752352 0.199426 0.316226
0.890576 0.199426 0.316226
1.000000 0.199426 0.316226
0.000000 0.316226 0.316226
0.091860 0.316226 0.316226
0.199426 0.316226 0.316226
0.316226 0.316226 0.316226
0.444389 0.316226 0.316226
0.593058 0.316226 0.316226
0.752352 0.316226 0.316226
0.890576 0.316226 0.316226
1.000000 0.316226 0.316226
0.000000 0.444389 0.316226
0.091860 0.444389 0.316226
0.199426 0.444389 0.316226
0.316226 0.444389 0.316226
0.444389 0.444389 0.316226
0.593058 0.444389 0.316226
0.752352 0.444389 0.316226
0.890576 0.444389 0.316226
1.000000 0.444389 0.316226
0.000000 0.593058 0.316226
0.091860 0.593058 0.316226
0.199426 0.593058 0.316226
0.316226 0.593058 0.316226
0.444389 0.593058 0.316226
0.593058 0.593058 0.316226
0.752352 0.593058 0.316226
0.890576 0.593058 0.316226
1.000000 0.593058 0.316226
0.000000 0.752352 0.316226
0.091860 0.752352 0.316226
0.199426 0.752352 0.316226
0.316226 0.752352 0.316226
0.444389 0.752352 0.316226
0.593058 0.752352 0.316226
0.752352 0.752352 0.316226
0.890576 0.752352 0.316226
1.000000 0.752352 0.316226
0.000000 0.890576 0.316226
0.091860 0.890576 0.316226
0.199426 0.890576 0.316226
0.316226 0.890576 0.316226
0.444389 0.890576 0.316226
0.593058 0.890576 0.316226
0.752352 0.890576 0.316226
0.890576 0.890576 0.316226
1.000000 0.890576 0.316226
0.000000 1.000000 0.316226
0.091860 1.000000 0.316226
0.199426 1.000000 0.316226
0.316226 1.000000 0.316226
0.444389 1.000000 0.316226
0.593058 1.000000 0.316226
0.752352 1.000000 0.316226
0.890576 1.000000 0.316226
1.000000 1.000000 0.316226
0.000000 0.000000 0.444389
0.091860 0.000000 0.444389
0.199426 0.000000 0.444389
0.316226 0.000000 0.444389
0.444389 0.000000 0.444389
0.593058 0.000000 0.444389
0.752352 0.000000 0.444389
0.890576 0.000000 0.444389
1.000000 0.000000 0.444389
0.000000 0.091860 0.444389
0.091860 0.091860 0.444389
0.199426 0.091860 0.444389
0.316226 0.091860 0.444389
0.444389 0.091860 0.444389
0.593058 0.091860 0.444389
0.752352 0.091860 0.444389
0.890576 0.091860 0.444389
1.000000 0.091860 0.444389
0.000000 0.199426 0.444389
0.091860 0.199426 0.444389
0.199426 0.199426 0.444389
0.316226 0.199426 0.444389
0.444389 0.199426 0.444389
0.593058 0.199426 0.444389
0.752352 0.199426 0.444389
0.890576 0.199426 0.444389
1.000000 0.199426 0.444389
0.000000 0.316226 0.444389
0.091860 0.316226 0.444389
0.199426 0.316226 0.444389
0.316226 0.316226 0.444389
0.444389 0.316226 0.444389
0.593058 0.316226 0.444389
0.752352 0.316226 0.444389
0.890576 0.316226 0.444389
1.000000 0.316226 0.444389
0.000000 0.444389 0.444389
0.091860 0.444389 0.444389
0.199426 0.444389 0.444389
0.316226 0.444389 0.444389
0.444389 0.444389 0.444389
0.593058 0.444389 0.444389
0.752352 0.444389 0.444389
0.890576 0.444389 0.444389
1.000000 0.444389 0.444389
0.000000 0.593058 0.444389
0.091860 0.593058 0.444389
0.199426 0.593058 0.444389
0.316226 0.593058 0.444389
0.444389 0.593058 0.444389
0.593058 0.593058 0.444389
0.752352 0.593058 0.444389
0.890576 0.593058 0.444389
1.000000 0.593058 0.444389
0.000000 0.752352 0.444389
0.091860 0.752352 0.444389
0.199426 0.752352 0.444389
0.316226 0.752352 0.444389
0.444389 0.752352 0.444389
0.593058 0.752352 0.444389
0.752352 0.752352 0.444389
0.890576 0.752352 0.444389
1.000000 0.752352 0.444389
0.000000 0.890576 0.444389
0.091860 0.890576 0.444389
0.199426 0.890576 0.444389
0.316226 0.890576 0.444389
0.444389 0.890576 0.444389
0.593058 0.890576 0.444389
0.752352 0.890576 0.444389
0.890576 0.890576 0.444389
1.000000 0.890576 0.444389
0.000000 1.000000 0.444389
0.091860 1.000000 0.444389
0.199426 1.000000 0.444389
0.316226 1.000000 0.444389
0.444389 1.000000 0.444389
0.593058 1.000000 0.444389
0.752352 1.000000 0.444389
0.890576 1.000000 0.444389
1.000000 1.000000 0.444389
0.000000 0.000000 0.593058
0.091860 0.000000 0.593058
0.199426 0.000000 0.593058
0.316226 0.000000 0.593058
0.444389 0.000000 0.593058
0.593058 0.000000 0.593058
0.752352 0.000000 0.593058
0.890576 0.000000 0.593058
1.000000 0.000000 0.593058
0.000000 0.091860 0.593058
0.091860 0.091860 0.593058
0.199426 0.091860 0.593058
0.316226 0.091860 0.593058
0.444389 0.091860 0.593058
0.593058 0.091860 0.593058
0.752352 0.091860 0.593058
0.890576 0.091860 0.593058
1.000000 0.091860 0.593058
0.000000 0.199426 0.593058
0.091860 0.199426 0.593058
0.199426 0.199426 0.593058
0.316226 0.199426 0.593058
0.444389 0.199426 0.593058
0.593058 0.199426 0.593058
0.752352 0.199426 0.593058
0.890576 0.199426 0.593058
1.000000 0.199426 0.593058
0.000000 0.316226 0.593058
0.091860 0.316226 0.593058
0.199426 0.316226 0.593058
0.316226 0.316226 0.593058
0.444389 0.316226 0.593058
0.593058 0.316226 0.593058
0.752352 0.316226 0.593058
0.890576 0.316226 0.593058
1.000000 0.316226 0.593058
0.000000 0.444389 0.593058
0.091860 0.444389 0.593058
0.199426 0.444389 0.593058
0.316226 0.444389 0.593058
0.444389 0.444389 0.593058
0.593058 0.444389 0.593058
0.752352 0.444389 0.593058
0.890576 0.444389 0.593058
1.000000 0.444389 0.593058
0.000000 0.593058 0.593058
0.091860 0.593058 0.593058
0.199426 0.593058 0.593058
0.316226 0.593058 0.593058
0.444389 0.593058 0.593058
0.593058 0.593058 0.593058
0.752352 0.593058 0.593058
0.890576 0.593058 0.593058
1.000000 0.593058 0.593058
0.000000 0.752352 0.593058
0.091860 0.752352 0.593058
0.199426 0.752352 0.593058
0.316226 0.752352 0.593058
0.444389 0.752352 0.593058
0.593058 0.752352 0.593058
0.752352 0.752352 0.593058
0.890576 0.752352 0.593058
1.000000 0.752352 0.593058
0.000000 0.890576 0.593058
0.091860 0.890576 0.593058
0.199426 0.890576 0.593058
0.316226 0.890576 0.593058
0.444389 0.890576 0.593058
0.593058 0.890576 0.593058
0.752352 0.890576 0.593058
0.890576 0.890576 0.593058
1.000000 0.890576 0.593058
0.000000 1.000000 0.593058
0.091860 1.000000 0.593058
0.199426 1.000000 0.593058
0.316226 1.000000 0.593058
0.444389 1.000000 0.593058
0.593058 1.000000 0.593058
0.752352 1.000000 0.593058
0.890576 1.000000 0.593058
1.000000 1.000000 0.593058
0.000000 0.000000 0.752352
0.091860 0.000000 0.752352
0.199426 0.000000 0.752352
0.316226 0.000000 0.752352
0.444389 0.000000 0.752352
0.593058 0.000000 0.752352
0.752352 0.000000 0.752352
0.890576 0.000000 0.752352
1.000000 0.000000 0.752352
0.000000 0.091860 0.752352
0.091860 0.091860 0.752352
0.199426 0.091860 0.752352
0.316226 0.091860 0.752352
0.444389 0.091860 0.752352
0.593058 0.091860 0.752352
0.752352 0.091860 0.752352
0.890576 0.091860 0.752352
1.000000 0.091860 0.752352
0.000000 0.199426 0.752352
0.091860 0.199426 0.752352
0.199426 0.199426 0.752352
0.316226 0.199426 0.752352
0.444389 0.199426 0.752352
0.593058 0.199426 0.752352
0.752352 0.199426 0.752352
0.890576 0.199426 0.752352
1.000000 0.199426 0.752352
0.000000 0.316226 0.752352
0.091860 0.316226 0.752352
0.199426 0.316226 0.752352
0.316226 0.316226 0.752352
0.444389 0.316226 0.752352
0.593058 0.316226 0.752352
0.752352 0.316226 0.752352
0.890576 0.316226 0.752352
1.000000 0.316226 0.752352
0.000000 0.444389 0.752352
0.091860 0.444389 0.752352
0.199426 0.444389 0.752352
0.316226 0.444389 0.752352
0.444389 0.444389 0.752352
0.593058 0.444389 0.752352
0.752352 0.444389 0.752352
0.890576 0.444389 0.752352
1.000000 0.444389 0.752352
0.000000 0.593058 0.752352
0.091860 0.593058 0.752352
0.199426 0.593058 0.752352
0.316226 0.593058 0.752352
0.444389 0.593058 0.752352
0.593058 0.593058 0.752352
0.752352 0.593058 0.752352
0.890576 0.593058 0.752352
1.000000 0.593058 0.752352
0.000000 0.752352 0.752352
0.091860 0.752352 0.752352
0.199426 0.752352 0.752352
0.316226 0.752352 0.752352
0.444389 0.752352 0.752352
0.593058 0.752352 0.752352
0.752352 0.752352 0.752352
0.890576 0.752352 0.752352
1.000000 0.752352 0.752352
0.000000 0.890576 0.752352
0.091860 0.890576 0.752352
0.199426 0.890576 0.752352
0.316226 0.890576 0.752352
0.444389 0.890576 0.752352
0.593058 0.890576 0.752352
0.752352 0.890576 0.752352
0.890576 0.890576 0.752352
1.000000 0.890576 0.752352
0.000000 1.000000 0.752352
0.091860 1.000000 0.752352
0.199426 1.000000 0.752352
0.316226 1.000000 0.752352
0.444389 1.000000 0.752352
0.593058 1.000000 0.752352
0.752352 1.000000 0.752352
0.890576 1.000000 0.752352
1.000000 1.000000 0.752352
0.000000 0.000000 0.890576
0.091860 0.000000 0.890576
0.199426 0.000000 0.890576
0.316226 0.000000 0.890576
0.444389 0.000000 0.890576
0.593058 0.000000 0.890576
0.752352 0.000000 0.890576
0.890576 0.000000 0.890576
1.000000 0.000000 0.890576
0.000000 0.091860 0.890576
0.091860 0.091860 0.890576
0.199426 0.091860 0.890576
0.316226 0.091860 0.890576
0.444389 0.091860 0.890576
0.593058 0.091860 0.890576
0.752352 0.091860 0.890576
0.890576 0.091860 0.890576
1.000000 0.091860 0.890576
0.000000 0.199426 0.890576
0.091860 0.199426 0.890576
0.199426 0.199426 0.890576
0.316226 0.199426 0.890576
0.444389 0.199426 0.890576
0.593058 0.199426 0.890576
0.752352 0.199426 0.890576
0.890576 0.199426 0.890576
1.000000 0.199426 0.890576
0.000000 0.316226 0.890576
0.091860 0.316226 0.890576
0.199426 0.316226 0.890576
0.316226 0.316226 0.890576
0.444389 0.316226 0.890576
0.593058 0.316226 0.890576
0.752352 0.316226 0.890576
0.890576 0.316226 0.890576
1.000000 0.316226 0.890576
0.000000 0.444389 0.890576
0.091860 0.444389 0.890576
0.199426 0.444389 0.890576
0.316226 0.444389 0.890576
0.444389 0.444389 0.890576
0.593058 0.444389 0.890576
0.752352 0.444389 0.890576
0.890576 0.444389 0.890576
1.000000 0.444389 0.890576
0.000000 0.593058 0.890576
0.091860 0.593058 0.890576
0.199426 0.593058 0.890576
0.316226 0.593058 0.890576
0.444389 0.593058 0.890576
0.593058 0.593058 0.890576
0.752352 0.593058 0.890576
0.890576 0.593058 0.890576
1.000000 0.593058 0.890576
0.000000 0.752352 0.890576
0.091860 0.752352 0.890576
0.199426 0.752352 0.890576
0.316226 0.752352 0.890576
0.444389 0.752352 0.890576
0.593058 0.752352 0.890576
0.752352 0.752352 0.890576
0.890576 0.752352 0.890576
1.000000 0.752352 0.890576
0.000000 0.890576 0.890576
0.091860 0.890576 0.890576
0.199426 0.890576 0.890576
0.316226 0.890576 0.890576
0.444389 0.890576 0.890576
0.593058 0.890576 0.890576
0.752352 0.890576 0.890576
0.890576 0.890576 0.890576
1.000000 0.890576 0.890576
0.000000 1.000000 0.890576
0.091860 1.000000 0.890576
0.199426 1.000000 0.890576
0.316226 1.000000 0.890576
0.444389 1.000000 0.890576
0.593058 1.000000 0.890576
0.752352 1.000000 0.890576
0.890576 1.000000 0.890576
1.000000 1.000000 0.890576
0.000000 0.000000 1.000000
0.091860 0.000000 1.000000
0.199426 0.000000 1.000000
0.316226 0.000000 1.000000
0.444389 0.000000 1.000000
0.593058 0.000000 1.000000
0.752352 0.000000 1.000000
0.890576 0.000000 1.000000
1.000000 0.000000 1.000000
0.000000 0.091860 1.000000
0.091860 0.091860 1.000000
0.199426 0.091860 1.000000
0.316226 0.091860 1.000000
0.444389 0.091860 1.000000
0.593058 0.091860 1.000000
0.752352 0.091860 1.000000
0.890576 0.091860 1.000000
1.000000 0.091860 1.000000
0.000000 0.199426 1.000000
0.091860 0.199426 1.000000
0.199426 0.199426 1.000000
0.316226 0.199426 1.000000
0.444389 0.199426 1.000000
0.593058 0.199426 1.000000
0.752352 0.199426 1.000000
0.890576 0.199426 1.000000
1.000000 0.199426 1.000000
0.000000 0.316226 1.000000
0.091860 0.316226 1.000000
0.199426 0.316226 1.000000
0.316226 0.316226 1.000000
0.444389 0.316226 1.000000
0.593058 0.316226 1.000000
0.752352 0.316226 1.000000
0.890576 0.316226 1.000000
1.000000 0.316226 1.000000
0.000000 0.444389 1.000000
0.091860 0.444389 1.000000
0.199426 0.444389 1.000000
0.316226 0.444389 1.000000
0.444389 0.444389 1.000000
0.593058 0.444389 1.000000
0.752352 0.444389 1.000000
0.890576 0.444389 1.000000
1.000000 0.444389 1.000000
0.000000 0.593058 1.000000
0.091860 0.593058 1.000000
0.199426 0.593058 1.000000
0.316226 0.593058 1.000000
0.444389 0.593058 1.000000
0.593058 0.593058 1.000000
0.752352 0.593058 1.000000
0.890576 0.593058 1.000000
1.000000 0.593058 1.000000
0.000000 0.752352 1.000000
0.091860 0.752352 1.000000
0.199426 0.752352 1.000000
0.316226 0.752352 1.000000
0.444389 0.752352 1.000000
0.593058 0.752352 1.000000
0.752352 0.752352 1.000000
0.890576 0.752352 1.000000
1.000000 0.752352 1.000000
0.000000 0.890576 1.000000
0.091860 0.890576 1.000000
0.199426 0.890576 1.000000
0.316226 0.890576 1.000000
0.444389 0.890576 1.000000
0.593058 0.890576 1.000000
0.752352 0.890576 1.000000
0.890576 0.890576 1.000000
1.000000 0.890576 1.000000
0.000000 1.000000 1.000000
0.091860 1.000000 1.000000
0.199426 1.000000 1.000000
0.316226 1.000000 1.000000
0.444389 1.000000 1.000000
0.593058 1.000000 1.000000
0.752352 1.000000 1.000000
0.890576 1.000000 1.000000
1.000000 1.000000 1.000000
