assets/luts/Warm_tem._over.cube
LUT_3D_SIZE 6
0.054846 0.054846 0.054846
0.249715 0.054844 0.054844
0.431408 0.054838 0.054838
0.605290 0.054821 0.054821
0.772390 0.054800 0.054800
0.931800 0.054776 0.054776
0.054843 0.249715 0.054843
0.249715 0.249715 0.054841
0.431407 0.231359 0.054835
0.605290 0.224883 0.054821
0.772390 0.221109 0.054797
0.931800 0.217868 0.054766
0.054820 0.431406 0.054820
0.231355 0.431406 0.054817
0.431424 0.431424 0.054812
0.605289 0.419142 0.054799
0.772389 0.411943 0.054777
0.931800 0.405775 0.054750
0.054775 0.605289 0.054775
0.224874 0.605289 0.054772
0.419140 0.605289 0.054767
0.605289 0.605289 0.054754
0.772388 0.594946 0.054740
0.931799 0.585963 0.054705
0.054704 0.772388 0.054704
0.221091 0.772388 0.054708
0.411936 0.772388 0.054701
0.594945 0.772387 0.054688
0.772387 0.772387 0.054667
0.931797 0.760851 0.054647
0.054612 0.931796 0.054612
0.217878 0.931796 0.054615
0.405763 0.931796 0.054609
0.585960 0.931796 0.054593
0.760849 0.931796 0.054572
0.931795 0.931795 0.054547
0.054846 0.054846 0.249716
0.249715 0.054846 0.249715
0.431407 0.054837 0.231360
0.605290 0.054820 0.224884
0.772390 0.054799 0.221110
0.931800 0.054775 0.217869
0.054843 0.249715 0.249715
0.249714 0.249714 0.249714
0.442299 0.240952 0.240952
0.624773 0.217832 0.217832
0.791991 0.196248 0.196248
0.948808 0.181467 0.181467
0.054819 0.431406 0.231355
0.214859 0.435696 0.214859
0.432421 0.432421 0.207093
0.615374 0.418975 0.195567
0.785125 0.407983 0.184210
0.944559 0.398477 0.175077
0.054774 0.605289 0.224874
0.182619 0.609128 0.182619
0.411575 0.608009 0.180264
0.606101 0.606101 0.176325
0.777920 0.594864 0.171729
0.939283 0.584590 0.167478
0.054703 0.772388 0.221092
0.167209 0.775320 0.167209
0.399376 0.774836 0.166452
0.591510 0.774010 0.165109
0.772887 0.772887 0.163388
0.935019 0.760926 0.161725
0.054611 0.931796 0.217878
0.160425 0.933991 0.160425
0.391070 0.933759 0.160189
0.580359 0.933468 0.159778
0.759161 0.932940 0.159221
0.932238 0.932238 0.158649
0.054845 0.054845 0.431408
0.231361 0.054845 0.431408
0.431407 0.054832 0.431407
0.605290 0.054820 0.419146
0.772390 0.054802 0.411945
0.931800 0.054771 0.405777
0.054838 0.231360 0.431408
0.246844 0.246844 0.444045
0.441951 0.237016 0.441951
0.623704 0.214706 0.428012
0.791150 0.194686 0.413253
0.948344 0.180669 0.401204
0.054815 0.431406 0.431406
0.212035 0.434493 0.434493
0.431424 0.431424 0.431424
0.617330 0.425331 0.425331
0.792705 0.415125 0.415125
0.958710 0.400678 0.400678
0.054770 0.605289 0.419140
0.181767 0.608743 0.412286
0.408648 0.609990 0.408648
0.606582 0.606582 0.399689
0.787609 0.595803 0.386219
0.955391 0.582848 0.372024
0.054705 0.772388 0.411936
0.166944 0.775071 0.399607
0.366105 0.780392 0.366105
0.582210 0.777879 0.360034
0.774277 0.774277 0.351283
0.944681 0.761084 0.341688
0.054612 0.931796 0.405763
0.160334 0.933892 0.391171
0.331049 0.940074 0.331049
0.559124 0.938514 0.327697
0.752587 0.936338 0.322781
0.933609 0.933609 0.316613
0.054839 0.054839 0.605290
0.224886 0.054836 0.605290
0.419147 0.054837 0.605290
0.605290 0.054817 0.605290
0.772390 0.054799 0.594947
0.931800 0.054769 0.585965
0.054836 0.224886 0.605290
0.240601 0.240601 0.626476
0.433292 0.228450 0.627353
0.621526 0.209172 0.621526
0.789490 0.191828 0.605015
0.947281 0.179219 0.590593
0.054813 0.419143 0.605289
0.206836 0.424378 0.620546
0.429381 0.429381 0.619385
0.616221 0.423213 0.616221
0.792449 0.412519 0.607005
0.958444 0.398088 0.594556
0.054768 0.605289 0.605289
0.180180 0.607980 0.607980
0.405603 0.608825 0.608825
0.605288 0.605288 0.605288
0.784903 0.600032 0.600032
0.954840 0.591595 0.591595
0.054702 0.772388 0.594946
0.166430 0.774816 0.592194
0.364003 0.779511 0.584331
0.587283 0.776934 0.587283
0.773539 0.773539 0.581490
0.947206 0.763575 0.569507
0.054611 0.931796 0.585960
0.160190 0.933742 0.580594
0.329883 0.939451 0.560322
0.554112 0.940704 0.554112
0.749983 0.938031 0.546770
0.934068 0.934068 0.536753
0.054833 0.054833 0.772390
0.221114 0.054836 0.772390
0.411946 0.054823 0.772390
0.594948 0.054811 0.772390
0.772389 0.054796 0.772389
0.931800 0.054762 0.760855
0.054825 0.221114 0.772390
0.227385 0.227385 0.804393
0.424038 0.217019 0.801928
0.610048 0.202087 0.795074
0.787236 0.187859 0.787236
0.945882 0.177139 0.770386
0.054802 0.411945 0.772390
0.200211 0.416033 0.794141
0.426081 0.426081 0.796021
0.610365 0.419837 0.794079
0.792164 0.407842 0.792164
0.957904 0.393857 0.778482
0.054761 0.594947 0.772389
0.178041 0.598079 0.781662
0.401016 0.602511 0.791169
0.603493 0.603493 0.787110
0.783747 0.598208 0.783747
0.954247 0.589482 0.775074
0.054695 0.772387 0.772387
0.165691 0.774465 0.774465
0.360756 0.778205 0.778205
0.585389 0.775785 0.775785
0.772387 0.772387 0.772387
0.945953 0.767105 0.767105
0.054608 0.931796 0.760850
0.159953 0.933603 0.759801
0.328078 0.938720 0.754923
0.551591 0.939772 0.752819
0.756244 0.936323 0.756244
0.932884 0.932884 0.751502
0.054819 0.054819 0.931801
0.217873 0.054822 0.931801
0.405781 0.054810 0.931801
0.585966 0.054801 0.931801
0.760855 0.054776 0.931800
0.931800 0.054752 0.931800
0.054816 0.217872 0.931801
0.219074 0.219074 0.962816
0.414012 0.208565 0.962426
0.598485 0.194648 0.957678
0.774203 0.183679 0.950351
0.944177 0.174575 0.944177
0.054797 0.405779 0.931801
0.193244 0.407624 0.956745
0.422141 0.422141 0.961282
0.603068 0.415978 0.960536
0.781165 0.405231 0.959316
0.957212 0.387465 0.957212
0.054751 0.585965 0.931800
0.175660 0.588785 0.944862
0.399535 0.595248 0.958596
0.600959 0.600959 0.957617
0.778228 0.595240 0.955902
0.953314 0.586361 0.953314
0.054687 0.760852 0.931798
0.164937 0.763031 0.937431
0.357230 0.768080 0.951127
0.580078 0.769901 0.951236
0.770463 0.770463 0.948572
0.944629 0.765327 0.944629
0.054593 0.931796 0.931796
0.159638 0.933311 0.933311
0.325628 0.937627 0.937627
0.547980 0.938522 0.938522
0.754608 0.935207 0.935207
0.931794 0.931794 0.931794
