assets/luts/Warm_tem._over.cube
LUT_3D_SIZE 16
0.054846 0.054846 0.054846
0.120249 0.054846 0.054846
0.185951 0.054846 0.054846
0.249715 0.054844 0.054844
0.311615 0.054844 0.054844
0.372070 0.054843 0.054843
0.431408 0.054838 0.054838
0.489905 0.054838 0.054838
0.547871 0.054831 0.054831
0.605290 0.054821 0.054821
0.661760 0.054819 0.054819
0.717462 0.054813 0.054813
0.772390 0.054800 0.054800
0.826771 0.054796 0.054796
0.880043 0.054788 0.054788
0.931800 0.054776 0.054776
0.054846 0.120248 0.054846
0.120248 0.120248 0.054846
0.185951 0.105100 0.054845
0.249715 0.099712 0.054843
0.311616 0.096854 0.054843
0.372070 0.095069 0.054842
0.431407 0.093851 0.054837
0.489905 0.092963 0.054837
0.547871 0.092320 0.054831
0.605290 0.091810 0.054821
0.661760 0.091384 0.054818
0.717462 0.090994 0.054812
0.772390 0.090649 0.054799
0.826771 0.090320 0.054799
0.880043 0.090011 0.054787
0.931800 0.089637 0.054775
0.054843 0.185951 0.054843
0.105099 0.185951 0.054846
0.185950 0.185950 0.054845
0.249715 0.174689 0.054843
0.311615 0.168669 0.054844
0.372070 0.164855 0.054839
0.431407 0.162237 0.054834
0.489905 0.160339 0.054834
0.547871 0.158964 0.054828
0.605290 0.157852 0.054821
0.661760 0.156903 0.054816
0.717462 0.156078 0.054809
0.772390 0.155319 0.054803
0.826771 0.154623 0.054796
0.880043 0.153921 0.054790
0.931800 0.153132 0.054772
0.054843 0.249715 0.054843
0.099711 0.249715 0.054843
0.174689 0.249715 0.054842
0.249715 0.249715 0.054841
0.311615 0.240828 0.054837
0.372070 0.235227 0.054833
0.431407 0.231359 0.054835
0.489905 0.228553 0.054830
0.547871 0.226475 0.054822
0.605290 0.224883 0.054821
0.661760 0.223453 0.054810
0.717461 0.222236 0.054809
0.772390 0.221109 0.054797
0.826771 0.220094 0.054797
0.880043 0.219040 0.054776
0.931800 0.217868 0.054766
0.054834 0.311615 0.054834
0.096855 0.311615 0.054833
0.168668 0.311615 0.054833
0.240828 0.311615 0.054838
0.311614 0.311614 0.054835
0.372070 0.304275 0.054837
0.431407 0.299212 0.054827
0.489904 0.295577 0.054820
0.547871 0.292866 0.054821
0.605290 0.290745 0.054811
0.661760 0.288913 0.054813
0.717461 0.287294 0.054802
0.772389 0.285839 0.054797
0.826771 0.284492 0.054787
0.880043 0.283142 0.054776
0.931800 0.281592 0.054764
0.054829 0.372069 0.054829
0.095065 0.372069 0.054829
0.164852 0.372069 0.054828
0.235226 0.372069 0.054826
0.304274 0.372069 0.054823
0.372069 0.372069 0.054823
0.431406 0.365810 0.054823
0.489904 0.361356 0.054816
0.547870 0.358008 0.054815
0.605289 0.355466 0.054811
0.661760 0.353218 0.054802
0.717461 0.351197 0.054798
0.772389 0.349375 0.054790
0.826771 0.347740 0.054786
0.880043 0.346080 0.054770
0.931800 0.344199 0.054763
0.054820 0.431406 0.054820
0.093841 0.431406 0.054820
0.162233 0.431406 0.054819
0.231355 0.431406 0.054817
0.299210 0.431406 0.054814
0.365809 0.431405 0.054810
0.431424 0.431424 0.054812
0.489904 0.426090 0.054811
0.547870 0.422162 0.054798
0.605289 0.419142 0.054799
0.661760 0.416448 0.054793
0.717461 0.414068 0.054787
0.772389 0.411943 0.054777
0.826771 0.409995 0.054770
0.880043 0.408055 0.054758
0.931800 0.405775 0.054750
0.054810 0.489904 0.054810
0.092948 0.489904 0.054810
0.160334 0.489904 0.054809
0.228548 0.489903 0.054803
0.295575 0.489903 0.054800
0.361355 0.489903 0.054796
0.426090 0.489903 0.054798
0.489903 0.489903 0.054797
0.547869 0.485417 0.054792
0.605289 0.481896 0.054789
0.661760 0.478835 0.054790
0.717461 0.476102 0.054771
0.772389 0.473641 0.054763
0.826771 0.471402 0.054760
0.880043 0.469149 0.054751
0.931799 0.466555 0.054741
0.054794 0.547869 0.054794
0.092310 0.547869 0.054794
0.158953 0.547869 0.054793
0.226490 0.547869 0.054798
0.292863 0.547869 0.054795
0.358007 0.547869 0.054791
0.422161 0.547869 0.054792
0.485416 0.547869 0.054777
0.547868 0.547868 0.054775
0.605289 0.543935 0.054768
0.661759 0.540456 0.054763
0.717460 0.537372 0.054763
0.772389 0.534636 0.054750
0.826770 0.532101 0.054744
0.880042 0.529487 0.054739
0.931799 0.526582 0.054725
0.054775 0.605289 0.054775
0.091795 0.605289 0.054775
0.157855 0.605289 0.054774
0.224874 0.605289 0.054772
0.290756 0.605289 0.054769
0.355464 0.605289 0.054765
0.419140 0.605289 0.054767
0.481895 0.605289 0.054760
0.543935 0.605289 0.054758
0.605289 0.605289 0.054754
0.661759 0.601406 0.054748
0.717460 0.597972 0.054742
0.772388 0.594946 0.054740
0.826770 0.592086 0.054729
0.880042 0.589242 0.054717
0.931799 0.585963 0.054705
0.054756 0.661759 0.054756
0.091353 0.661759 0.054756
0.156896 0.661759 0.054755
0.223461 0.661759 0.054753
0.288908 0.661759 0.054752
0.353216 0.661759 0.054751
0.416444 0.661759 0.054749
0.478834 0.661759 0.054746
0.540455 0.661759 0.054743
0.601405 0.661759 0.054740
0.661759 0.661759 0.054729
0.717459 0.657985 0.054721
0.772388 0.654600 0.054719
0.826770 0.651456 0.054703
0.880042 0.648314 0.054697
0.931798 0.644717 0.054692
0.054736 0.717459 0.054736
0.090947 0.717459 0.054736
0.156055 0.717459 0.054735
0.222222 0.717459 0.054733
0.287288 0.717459 0.054730
0.351194 0.717459 0.054728
0.414062 0.717459 0.054726
0.476099 0.717459 0.054719
0.537371 0.717459 0.054717
0.597972 0.717459 0.054714
0.657985 0.717458 0.054708
0.717458 0.717458 0.054701
0.772387 0.713768 0.054699
0.826769 0.710502 0.054690
0.880041 0.706995 0.054671
0.931798 0.703106 0.054666
0.054704 0.772388 0.054704
0.090598 0.772388 0.054703
0.155307 0.772388 0.054703
0.221091 0.772388 0.054708
0.285831 0.772388 0.054705
0.349400 0.772388 0.054707
0.411936 0.772388 0.054701
0.473638 0.772387 0.054694
0.534634 0.772387 0.054698
0.594945 0.772387 0.054688
0.654599 0.772387 0.054684
0.713767 0.772387 0.054680
0.772387 0.772387 0.054667
0.826769 0.768786 0.054657
0.880040 0.765059 0.054656
0.931797 0.760851 0.054647
0.054682 0.826769 0.054682
0.090280 0.826769 0.054682
0.154616 0.826769 0.054681
0.220074 0.826769 0.054675
0.284499 0.826769 0.054672
0.347733 0.826769 0.054675
0.409986 0.826769 0.054669
0.471398 0.826769 0.054669
0.532097 0.826769 0.054667
0.592085 0.826769 0.054657
0.651455 0.826768 0.054658
0.710500 0.826768 0.054650
0.768785 0.826768 0.054642
0.826768 0.826768 0.054638
0.880040 0.822764 0.054626
0.931796 0.818347 0.054614
0.054648 0.880040 0.054648
0.089936 0.880040 0.054648
0.153897 0.880040 0.054647
0.219015 0.880040 0.054651
0.283137 0.880040 0.054648
0.346058 0.880040 0.054651
0.408043 0.880040 0.054645
0.469145 0.880040 0.054638
0.529483 0.880040 0.054637
0.589239 0.880040 0.054633
0.648312 0.880040 0.054627
0.706994 0.880040 0.054614
0.765058 0.880040 0.054611
0.822764 0.880039 0.054603
0.880039 0.880039 0.054591
0.931796 0.875173 0.054580
0.054612 0.931796 0.054612
0.089565 0.931796 0.054611
0.153101 0.931796 0.054610
0.217878 0.931796 0.054615
0.281578 0.931796 0.054613
0.344177 0.931796 0.054615
0.405763 0.931796 0.054609
0.466550 0.931796 0.054607
0.526577 0.931796 0.054603
0.585960 0.931796 0.054593
0.644715 0.931796 0.054595
0.703105 0.931796 0.054582
0.760849 0.931796 0.054572
0.818345 0.931795 0.054562
0.875172 0.931795 0.054559
0.931795 0.931795 0.054547
0.054846 0.054846 0.120249
0.120249 0.054846 0.120249
0.185951 0.054846 0.105100
0.249715 0.054844 0.099712
0.311615 0.054844 0.096854
0.372070 0.054843 0.095069
0.431407 0.054837 0.093851
0.489905 0.054838 0.092963
0.547871 0.054831 0.092321
0.605290 0.054821 0.091811
0.661760 0.054819 0.091385
0.717462 0.054813 0.090994
0.772390 0.054800 0.090649
0.826771 0.054796 0.090321
0.880043 0.054788 0.090011
0.931800 0.054776 0.089637
0.054846 0.120248 0.120248
0.120248 0.120248 0.120248
0.189895 0.116989 0.116989
0.256658 0.108480 0.108480
0.318379 0.100981 0.100981
0.377814 0.095954 0.095954
0.436192 0.092756 0.092756
0.493904 0.090790 0.090790
0.551241 0.089645 0.089645
0.608107 0.089081 0.089081
0.664176 0.088938 0.088938
0.719549 0.089090 0.089090
0.774229 0.089449 0.089449
0.828440 0.090005 0.090005
0.881441 0.090698 0.090698
0.933118 0.091466 0.091466
0.054843 0.185951 0.105099
0.107632 0.187434 0.107632
0.186297 0.186297 0.104967
0.253209 0.177054 0.100880
0.315959 0.170588 0.096994
0.376290 0.165918 0.093910
0.435303 0.162577 0.091726
0.493310 0.160175 0.090295
0.550839 0.158485 0.089419
0.607836 0.157276 0.089019
0.663974 0.156345 0.088951
0.719476 0.155655 0.089148
0.774172 0.155143 0.089550
0.828318 0.154754 0.090119
0.881331 0.154439 0.090805
0.933018 0.154104 0.091598
0.054843 0.249715 0.099711
0.096605 0.251034 0.096605
0.174229 0.250632 0.095829
0.249992 0.249992 0.094539
0.313492 0.241774 0.092984
0.374526 0.236123 0.091557
0.434078 0.232025 0.090407
0.492481 0.228958 0.089593
0.550321 0.226732 0.089116
0.607472 0.225020 0.088944
0.663620 0.223558 0.089022
0.719198 0.222327 0.089296
0.774010 0.221308 0.089748
0.828234 0.220441 0.090339
0.881275 0.219565 0.091036
0.932924 0.218619 0.091819
0.054834 0.311615 0.096855
0.091571 0.312587 0.091571
0.167218 0.312436 0.091337
0.240590 0.312189 0.090923
0.311806 0.311806 0.090392
0.373141 0.304825 0.089852
0.432951 0.299872 0.089390
0.491603 0.296135 0.089079
0.549643 0.293379 0.088946
0.606990 0.291180 0.088987
0.663249 0.289290 0.089207
0.718938 0.287661 0.089575
0.773767 0.286235 0.090086
0.828084 0.284959 0.090708
0.881208 0.283701 0.091424
0.932904 0.282299 0.092204
0.054829 0.372069 0.095065
0.089481 0.372814 0.089481
0.163085 0.372720 0.089419
0.234623 0.372592 0.089309
0.304214 0.372436 0.089169
0.372196 0.372196 0.089041
0.432134 0.366275 0.088949
0.490896 0.361842 0.088950
0.549085 0.358577 0.089042
0.606502 0.355969 0.089250
0.662928 0.353685 0.089584
0.718613 0.351655 0.090027
0.773493 0.349869 0.090574
0.827913 0.348284 0.091226
0.881031 0.346648 0.091968
0.932726 0.344866 0.092758
0.054820 0.431406 0.093841
0.088941 0.431981 0.088941
0.160582 0.431987 0.088936
0.230707 0.431921 0.088944
0.299042 0.431815 0.088954
0.365860 0.431656 0.089004
0.431555 0.431555 0.089088
0.490392 0.426425 0.089246
0.548602 0.422586 0.089472
0.606109 0.419583 0.089799
0.662623 0.416924 0.090220
0.718343 0.414553 0.090723
0.773259 0.412462 0.091298
0.827662 0.410548 0.091970
0.880843 0.408615 0.092695
0.932627 0.406433 0.093464
0.054810 0.489904 0.092948
0.089274 0.490354 0.089274
0.159045 0.490343 0.089297
0.228004 0.490319 0.089350
0.295356 0.490244 0.089433
0.361342 0.490190 0.089550
0.426132 0.490072 0.089720
0.490030 0.490030 0.089951
0.548214 0.485675 0.090269
0.605780 0.482243 0.090650
0.662316 0.479242 0.091086
0.718247 0.476569 0.091615
0.773031 0.474109 0.092205
0.827439 0.471926 0.092870
0.880701 0.469709 0.093602
0.932576 0.467194 0.094365
0.054794 0.547869 0.092310
0.090189 0.548273 0.090189
0.158207 0.548248 0.090225
0.226186 0.548252 0.090296
0.292772 0.548223 0.090395
0.358034 0.548125 0.090546
0.422232 0.548102 0.090750
0.485512 0.548036 0.091016
0.547966 0.547966 0.091350
0.605550 0.544152 0.091752
0.662105 0.540742 0.092218
0.717835 0.537715 0.092744
0.772979 0.535078 0.093339
0.827304 0.532533 0.093987
0.880520 0.530037 0.094694
0.932295 0.527131 0.095429
0.054775 0.605289 0.091795
0.091489 0.605579 0.091489
0.157798 0.605573 0.091523
0.224908 0.605577 0.091604
0.290864 0.605558 0.091715
0.355582 0.605532 0.091873
0.419237 0.605500 0.092088
0.482046 0.605468 0.092364
0.544015 0.605382 0.092707
0.605363 0.605363 0.093093
0.661868 0.601589 0.093551
0.717766 0.598229 0.094075
0.772736 0.595287 0.094664
0.827209 0.592506 0.095289
0.880469 0.589684 0.095975
0.932186 0.586534 0.096672
0.054756 0.661759 0.091353
0.093059 0.661910 0.093059
0.157658 0.661905 0.093078
0.223904 0.661895 0.093156
0.289254 0.661879 0.093270
0.353467 0.661857 0.093441
0.416692 0.661856 0.093658
0.478990 0.661824 0.093920
0.540618 0.661819 0.094263
0.601509 0.661824 0.094647
0.661784 0.661784 0.095097
0.717552 0.658106 0.095597
0.772615 0.654814 0.096138
0.827034 0.651808 0.096757
0.880282 0.648739 0.097393
0.932138 0.645221 0.098069
0.054736 0.717459 0.090948
0.094823 0.717681 0.094823
0.157715 0.717742 0.094852
0.223194 0.717730 0.094923
0.287932 0.717708 0.095038
0.351658 0.717617 0.095183
0.414426 0.717583 0.095395
0.476372 0.717540 0.095658
0.537585 0.717493 0.095979
0.598098 0.717542 0.096347
0.658030 0.717489 0.096780
0.717536 0.717536 0.097266
0.772453 0.713886 0.097810
0.826990 0.710594 0.098364
0.880269 0.707279 0.098985
0.932077 0.703433 0.099605
0.054704 0.772388 0.090598
0.096735 0.772551 0.096735
0.157943 0.772548 0.096772
0.222598 0.772541 0.096834
0.286824 0.772531 0.096935
0.350126 0.772516 0.097088
0.412500 0.772498 0.097286
0.474065 0.772476 0.097529
0.534933 0.772450 0.097822
0.595155 0.772422 0.098183
0.654706 0.772405 0.098583
0.713797 0.772373 0.099051
0.772343 0.772343 0.099582
0.826883 0.768811 0.100127
0.880100 0.765273 0.100686
0.931922 0.761085 0.101279
0.054682 0.826769 0.090280
0.098756 0.826954 0.098756
0.158322 0.826951 0.098786
0.222179 0.826945 0.098854
0.285860 0.826937 0.098945
0.348763 0.826924 0.099089
0.410736 0.826947 0.099269
0.471978 0.826928 0.099512
0.532494 0.826907 0.099795
0.592413 0.826882 0.100133
0.651719 0.826897 0.100521
0.710555 0.826869 0.100953
0.768776 0.826842 0.101441
0.826814 0.826814 0.101984
0.880045 0.822889 0.102515
0.931888 0.818449 0.103064
0.054648 0.880040 0.089936
0.100853 0.880087 0.100853
0.158739 0.880085 0.100875
0.221787 0.880080 0.100938
0.284945 0.880073 0.101028
0.347370 0.880063 0.101167
0.409040 0.880049 0.101345
0.469875 0.880033 0.101550
0.530119 0.880015 0.101819
0.589697 0.879994 0.102123
0.648663 0.880046 0.102495
0.707258 0.880012 0.102902
0.765218 0.879986 0.103366
0.822893 0.880037 0.103876
0.880012 0.880012 0.104439
0.931856 0.875252 0.104939
0.054611 0.931796 0.089565
0.102976 0.931894 0.102976
0.159173 0.931892 0.102993
0.221291 0.931888 0.103053
0.283840 0.931882 0.103139
0.345812 0.931873 0.103260
0.406987 0.931862 0.103418
0.467500 0.931848 0.103624
0.527362 0.931918 0.103874
0.586592 0.931899 0.104167
0.645230 0.931880 0.104501
0.703410 0.931858 0.104890
0.761065 0.931908 0.105326
0.818377 0.931884 0.105805
0.875228 0.931860 0.106337
0.931837 0.931837 0.106907
0.054846 0.054846 0.185951
0.105100 0.054846 0.185951
0.185951 0.054845 0.185951
0.249715 0.054844 0.174690
0.311615 0.054844 0.168670
0.372070 0.054843 0.164855
0.431407 0.054837 0.162237
0.489905 0.054837 0.160339
0.547871 0.054831 0.158964
0.605290 0.054821 0.157853
0.661760 0.054819 0.156903
0.717462 0.054813 0.156078
0.772390 0.054799 0.155319
0.826771 0.054796 0.154624
0.880043 0.054787 0.153912
0.931800 0.054776 0.153133
0.054846 0.105100 0.185951
0.119203 0.119203 0.190475
0.189795 0.115497 0.189795
0.256230 0.107412 0.180661
0.318071 0.100458 0.172675
0.377650 0.095707 0.167030
0.436121 0.092628 0.163166
0.493813 0.090724 0.160476
0.551198 0.089636 0.158625
0.608083 0.089078 0.157351
0.664155 0.088941 0.156381
0.719473 0.089085 0.155654
0.774214 0.089469 0.155127
0.828427 0.090027 0.154733
0.881429 0.090711 0.154409
0.933108 0.091488 0.154057
0.054846 0.185950 0.185950
0.106653 0.187021 0.187021
0.185950 0.185950 0.185950
0.254119 0.183685 0.183685
0.319172 0.179804 0.179804
0.383366 0.172405 0.172405
0.444783 0.163832 0.163832
0.503662 0.155867 0.155867
0.561142 0.149060 0.149060
0.617707 0.143435 0.143435
0.673119 0.138897 0.138897
0.727879 0.135252 0.135252
0.781912 0.132350 0.132350
0.835568 0.130031 0.130031
0.887999 0.128242 0.128242
0.939190 0.126865 0.126865
0.054843 0.249715 0.174689
0.096309 0.250885 0.174505
0.177468 0.251438 0.177468
0.250208 0.250208 0.174129
0.317151 0.244225 0.169054
0.380825 0.238233 0.162974
0.441985 0.232480 0.156654
0.501127 0.227254 0.150723
0.559098 0.222780 0.145410
0.616089 0.218987 0.140861
0.671883 0.215776 0.137076
0.727022 0.213075 0.133956
0.781217 0.210773 0.131416
0.834996 0.208881 0.129387
0.887529 0.207188 0.127771
0.938838 0.205629 0.126537
0.054833 0.311615 0.168668
0.091489 0.312535 0.167319
0.161805 0.314541 0.161805
0.239029 0.313644 0.159618
0.312297 0.312297 0.156524
0.376651 0.305749 0.152758
0.438283 0.300358 0.148738
0.498007 0.295620 0.144742
0.556520 0.291711 0.140987
0.613997 0.288365 0.137617
0.670252 0.285382 0.134706
0.725656 0.282787 0.132233
0.780173 0.280509 0.130172
0.834092 0.278492 0.128465
0.886916 0.276660 0.127121
0.938317 0.274760 0.126058
0.054829 0.372069 0.164852
0.089459 0.372750 0.163101
0.149025 0.375016 0.149025
0.229201 0.374441 0.147872
0.302586 0.373714 0.146160
0.372711 0.372711 0.144015
0.434808 0.366745 0.141597
0.494986 0.361930 0.139076
0.553926 0.358015 0.136580
0.611813 0.354703 0.134245
0.668465 0.351719 0.132147
0.724146 0.349051 0.130303
0.778933 0.346625 0.128735
0.833148 0.344479 0.127411
0.886010 0.342401 0.126347
0.937603 0.340192 0.125514
0.054820 0.431406 0.162233
0.088939 0.431952 0.160575
0.140042 0.434087 0.140042
0.221958 0.433732 0.139423
0.295164 0.433295 0.138476
0.364629 0.432679 0.137267
0.431986 0.431986 0.135836
0.492374 0.426746 0.134302
0.551612 0.422576 0.132719
0.609830 0.419158 0.131164
0.666688 0.416007 0.129732
0.722724 0.413204 0.128443
0.777808 0.410612 0.127314
0.832118 0.408286 0.126357
0.885137 0.406004 0.125578
0.936842 0.403436 0.124953
0.054810 0.489904 0.160334
0.089284 0.490344 0.159040
0.133892 0.492165 0.133892
0.216771 0.491959 0.133559
0.289638 0.491698 0.133025
0.358625 0.491322 0.132336
0.425270 0.490880 0.131500
0.490386 0.490386 0.130578
0.549744 0.485903 0.129590
0.608111 0.482228 0.128596
0.665202 0.478909 0.127680
0.721301 0.475865 0.126832
0.776571 0.473185 0.126055
0.830982 0.470626 0.125401
0.884382 0.468111 0.124871
0.936098 0.465291 0.124449
0.054794 0.547869 0.158953
0.090194 0.548264 0.158181
0.129720 0.549886 0.129720
0.213131 0.549754 0.129530
0.285657 0.549557 0.129238
0.354128 0.549322 0.128836
0.420290 0.549010 0.128353
0.484906 0.548681 0.127816
0.548309 0.548309 0.127220
0.606714 0.544307 0.126625
0.663895 0.540705 0.126061
0.720173 0.537494 0.125522
0.775509 0.534573 0.125042
0.830121 0.531859 0.124634
0.883493 0.529098 0.124306
0.935448 0.526033 0.124066
0.054775 0.605289 0.157855
0.091500 0.605577 0.157801
0.126964 0.606983 0.126964
0.210509 0.606891 0.126853
0.282641 0.606757 0.126691
0.350681 0.606614 0.126468
0.416391 0.606389 0.126200
0.480573 0.606171 0.125896
0.543574 0.605889 0.125566
0.605618 0.605618 0.125219
0.662858 0.601772 0.124894
0.719116 0.598210 0.124596
0.774631 0.595151 0.124330
0.829266 0.592129 0.124106
0.882702 0.589187 0.123952
0.934585 0.585751 0.123832
0.054755 0.661759 0.156896
0.093064 0.661909 0.157639
0.125240 0.663193 0.125240
0.208539 0.663126 0.125179
0.280238 0.663024 0.125084
0.347849 0.662920 0.124974
0.413148 0.662757 0.124829
0.476894 0.662626 0.124680
0.539477 0.662359 0.124499
0.601199 0.662183 0.124328
0.661985 0.661985 0.124155
0.718367 0.658320 0.124024
0.773791 0.654808 0.123913
0.828531 0.651694 0.123824
0.882018 0.648460 0.123789
0.934092 0.644803 0.123790
0.054736 0.717459 0.156055
0.094828 0.717679 0.157716
0.124255 0.718729 0.124255
0.207068 0.718719 0.124226
0.278329 0.718603 0.124177
0.345500 0.718496 0.124136
0.410336 0.718461 0.124071
0.473752 0.718378 0.124003
0.536005 0.718282 0.123949
0.597322 0.718118 0.123875
0.657828 0.717803 0.123829
0.717726 0.717726 0.123790
0.773143 0.713976 0.123781
0.827931 0.710614 0.123797
0.881403 0.707150 0.123855
0.933483 0.703213 0.123952
0.054703 0.772388 0.155307
0.096748 0.772550 0.157935
0.123822 0.773483 0.123822
0.205960 0.773442 0.123821
0.276755 0.773511 0.123806
0.343481 0.773417 0.123802
0.408016 0.773297 0.123791
0.470998 0.773294 0.123783
0.532885 0.773125 0.123782
0.593860 0.772953 0.123797
0.654119 0.772886 0.123822
0.713736 0.772768 0.123868
0.772640 0.772640 0.123944
0.827392 0.768926 0.124033
0.881019 0.765333 0.124148
0.933016 0.761040 0.124277
0.054682 0.826769 0.154616
0.098770 0.826953 0.158323
0.123838 0.827824 0.123838
0.205146 0.827787 0.123848
0.275439 0.827728 0.123859
0.341787 0.827697 0.123876
0.405888 0.827627 0.123889
0.468582 0.827635 0.123933
0.530102 0.827485 0.123965
0.590763 0.827388 0.124036
0.650718 0.827317 0.124107
0.710111 0.827226 0.124200
0.768669 0.827141 0.124328
0.827017 0.827017 0.124474
0.880509 0.823067 0.124624
0.932620 0.818526 0.124803
0.054647 0.880040 0.153897
0.100854 0.880086 0.158734
0.124182 0.880976 0.124182
0.204468 0.880944 0.124196
0.274230 0.880890 0.124219
0.340138 0.880817 0.124247
0.403853 0.880769 0.124306
0.466195 0.880730 0.124349
0.527462 0.880693 0.124425
0.587797 0.880588 0.124518
0.647387 0.880521 0.124627
0.706437 0.880509 0.124754
0.764782 0.880380 0.124916
0.822819 0.880270 0.125095
0.880220 0.880220 0.125304
0.932285 0.875328 0.125497
0.054611 0.931796 0.153101
0.102985 0.931894 0.159151
0.124784 0.932653 0.124784
0.203872 0.932624 0.124803
0.272984 0.932575 0.124833
0.338387 0.932508 0.124874
0.401724 0.932531 0.124919
0.463621 0.932546 0.125001
0.524469 0.932506 0.125093
0.584476 0.932360 0.125197
0.643728 0.932272 0.125329
0.702458 0.932305 0.125478
0.760427 0.932150 0.125674
0.818148 0.932144 0.125871
0.875182 0.932111 0.126101
0.931937 0.931937 0.126370
0.054846 0.054846 0.249716
0.099713 0.054846 0.249716
0.174690 0.054845 0.249716
0.249715 0.054846 0.249715
0.311616 0.054846 0.240829
0.372070 0.054842 0.235228
0.431407 0.054837 0.231360
0.489905 0.054837 0.228554
0.547871 0.054830 0.226476
0.605290 0.054820 0.224884
0.661760 0.054818 0.223454
0.717462 0.054812 0.222237
0.772390 0.054799 0.221110
0.826771 0.054798 0.220095
0.880043 0.054787 0.219041
0.931800 0.054775 0.217869
0.054845 0.099713 0.249716
0.116784 0.116784 0.257521
0.182910 0.112249 0.257687
0.255408 0.105498 0.255408
0.317493 0.099506 0.245458
0.377309 0.095231 0.238335
0.435891 0.092407 0.233306
0.493671 0.090625 0.229699
0.551079 0.089581 0.227155
0.608012 0.089061 0.225213
0.664043 0.088945 0.223656
0.719546 0.089103 0.222398
0.774185 0.089481 0.221313
0.828401 0.090051 0.220426
0.881407 0.090720 0.219535
0.933087 0.091513 0.218561
0.054845 0.174690 0.249715
0.104686 0.179179 0.255031
0.185184 0.185184 0.254893
0.253702 0.182904 0.253702
0.319086 0.178774 0.248727
0.383190 0.171318 0.242934
0.444492 0.162980 0.236349
0.503387 0.155294 0.230161
0.560945 0.148645 0.224811
0.617522 0.143163 0.220428
0.672986 0.138694 0.216755
0.727803 0.135111 0.213778
0.781896 0.132245 0.211289
0.835486 0.129979 0.209211
0.887942 0.128197 0.207429
0.939081 0.126835 0.205794
0.054843 0.249715 0.249715
0.095802 0.250640 0.250640
0.176328 0.251046 0.251046
0.249714 0.249714 0.249714
0.316227 0.247750 0.247750
0.380026 0.244947 0.244947
0.442299 0.240952 0.240952
0.504614 0.234358 0.234358
0.565641 0.226200 0.226200
0.624773 0.217832 0.217832
0.681872 0.209884 0.209884
0.737504 0.202668 0.202668
0.791991 0.196248 0.196248
0.845550 0.190571 0.190571
0.897955 0.185666 0.185666
0.948808 0.181467 0.181467
0.054833 0.311615 0.240828
0.091330 0.312438 0.240828
0.161026 0.314215 0.239820
0.243005 0.313293 0.243005
0.312061 0.312061 0.240805
0.377454 0.308045 0.236921
0.441079 0.303394 0.231498
0.502966 0.298173 0.225047
0.563412 0.292687 0.218041
0.622293 0.287230 0.211085
0.679465 0.281971 0.204465
0.735402 0.277100 0.198357
0.790003 0.272693 0.192812
0.843984 0.268718 0.187848
0.896578 0.265118 0.183491
0.947667 0.261788 0.179735
0.054828 0.372069 0.235226
0.089424 0.372717 0.234707
0.148636 0.374803 0.229652
0.230166 0.375341 0.230166
0.302662 0.374360 0.227405
0.372937 0.372937 0.223721
0.437319 0.367834 0.219206
0.499444 0.362998 0.214165
0.559951 0.358419 0.208784
0.619022 0.354065 0.203376
0.676435 0.349783 0.198140
0.732722 0.345797 0.193237
0.787710 0.342068 0.188659
0.841929 0.338660 0.184525
0.894860 0.335457 0.180815
0.946192 0.332297 0.177553
0.054819 0.431406 0.231355
0.088936 0.431984 0.230746
0.139837 0.433961 0.222249
0.214859 0.435696 0.214859
0.291871 0.434878 0.212896
0.363567 0.433821 0.210277
0.432421 0.432421 0.207093
0.495104 0.427349 0.203494
0.556007 0.422955 0.199566
0.615374 0.418975 0.195567
0.673117 0.415074 0.191589
0.729812 0.411394 0.187795
0.785125 0.407983 0.184210
0.839770 0.404793 0.180852
0.892875 0.401734 0.177800
0.944559 0.398477 0.175077
0.054809 0.489904 0.228548
0.089300 0.490342 0.227998
0.133780 0.492120 0.216919
0.201661 0.494290 0.201661
0.282208 0.493718 0.200372
0.354994 0.492936 0.198593
0.424126 0.491978 0.196421
0.490881 0.490881 0.193933
